; generated by SuperSlicer 2.5.59.13 on 2025-11-14 at 21:36:35 UTC

; 

; external perimeters extrusion width = 0.45mm
; perimeters extrusion width = 0.45mm
; infill extrusion width = 0.45mm
; solid infill extrusion width = 0.45mm
; top infill extrusion width = 0.40mm


M106 S255
M140 S50 ; set bed temperature
G10 P0 R210 ; sets the standby temperature
G10 P0 S210 ; set temperature
;TYPE:Custom
G1 E1 F1800
G21 ; set units to millimeters
G90 ; use absolute coordinates
M83 ; use relative distances for extrusion
; FILAMENT_START_GCODE
G10 P0 S210 ; set temperature
M116 ; wait for temperature to be reached
M190 S50 ; set bed temperature and wait for it to be reached
;LAYER_CHANGE
;Z:49.2
;HEIGHT:49.200001
; BEFORE_LAYER_CHANGE
;49.2
G92 E0

G1 E-1.000000 F2100
G1 Z0.2 F9000
G1 Z49.2
; AFTER_LAYER_CHANGE
;49.2
G1 Z49.4
M204 P1000 T1000
G1 X-9.408 Y6.481
G1 Z49.2
G1 E1.000000 F2100
;TYPE:Internal infill
;WIDTH:0.45
;HEIGHT:0.2
M106 S255
G1 F1200
G1 X-9.969 Y5.604 E0.03525
G1 X-10.517 Y4.494 E0.04191
G1 X-10.573 Y4.341 E0.00551
G1 X-10.577 Y4.345 E0.0002
G1 X-12.496 Y2.426 E0.09187
G1 X-14.063 Y3.993 E0.075
G1 X-14.063 Y7.831 E0.12991
G1 X-12.496 Y6.264 E0.07501
G1 X-8.658 Y10.102 E0.18372
G1 X-10.577 Y12.021 E0.09187
G1 X-12.496 Y10.102 E0.09186
G1 X-14.063 Y11.669 E0.075
G1 X-14.063 Y12.373 E0.02384
G1 X-12.496 Y13.94 E0.07501
G1 X-14.063 Y15.507 E0.075
G1 X-14.063 Y18.563 E0.10344
G1 X-11.711 Y18.563 E0.0796
G1 X-12.496 Y17.778 E0.03756
G1 X-10.577 Y15.859 E0.09187
G1 X-8.658 Y17.778 E0.09186
G1 X-6.739 Y15.859 E0.09186
G1 X-8.658 Y13.94 E0.09186
G1 X-6.739 Y12.021 E0.09186
G1 X-3.253 Y15.507 E0.16687
G1 X-0.82 Y14.102 E0.0951
G1 X-0.982 Y13.94 E0.00776
G1 X0.937 Y12.021 E0.09186
G1 X1.614 Y12.697 E0.03238
G1 X6.48 Y9.888 E0.1902
G1 X6.199 Y9.607 E0.01345
G1 X6.135 Y9.652 E0.00266
G1 X5.05 Y10.261 E0.04211
G1 X3.913 Y10.747 E0.04186
G1 X2.729 Y11.106 E0.04187
G1 X1.514 Y11.336 E0.04186
G1 X0.281 Y11.433 E0.04186
G1 X-0.955 Y11.397 E0.04187
G1 X-2.116 Y11.236 E0.03966
G1 X-2.901 Y12.021 E0.03757
G1 X-4.352 Y10.57 E0.06947
G1 X-4.477 Y10.524 E0.00451
G1 X-5.656 Y9.94 E0.04452
G1 X-6.492 Y9.403 E0.03364
M106 S255
G1 E-0.9 F2100
;WIPE_START
G1 F7200
G1 X-6.203 Y9.588 E-0.095
;WIPE_END
G1 E-0.005 F2100
G1 Z49.4 F9000
; acceleration to travel
M204 P1000 T1500
G1 X-12.519 Y3.97
; decel to extrusion
M204 P1000 T1000
G1 X-14.063 Y2.597
; end travel
M204 P1000 T1500
G1 Z49.2
G1 E1.000000 F2100
M106 S255
G1 F1200
G1 X-14.063 Y0.155 E0.08267
G1 X-12.496 Y-1.412 E0.07501
G1 X-14.063 Y-2.979 E0.07501
G1 X-14.063 Y-5.421 E0.08268
M106 S255
G1 E-0.9 F2100
;WIPE_START
G1 F7200
G1 X-14.063 Y-5.079 E-0.095
;WIPE_END
G1 E-0.005 F2100
G1 Z49.4 F9000
; acceleration to travel
G1 X-11.891 Y-1.975
; decel to extrusion
M204 P1000 T1000
G1 X-11.36 Y-1.216
; end travel
M204 P1000 T1500
G1 Z49.2
G1 E1.000000 F2100
M106 S255
G1 F1200
G1 X-11.339 Y-1.49 E0.00929
G1 X-11.112 Y-2.706 E0.04189
G1 X-10.843 Y-3.597 E0.03149
G1 X-12.496 Y-5.25 E0.07912
G1 X-10.577 Y-7.169 E0.09187
G1 X-14.063 Y-10.655 E0.16686
G1 X-14.063 Y-15.197 E0.15375
G1 X-12.496 Y-16.764 E0.07501
G1 X-14.063 Y-18.331 E0.07501
G1 X-14.063 Y-19.035 E0.02383
G1 X-12.496 Y-20.602 E0.07501
G1 X-10.577 Y-18.683 E0.09186
G1 X-8.658 Y-20.602 E0.09186
G1 X-12.496 Y-24.44 E0.18372
G1 X-14.063 Y-22.873 E0.07501
G1 X-14.063 Y-26.711 E0.12991
G1 X-12.496 Y-28.278 E0.07501
G1 X-10.577 Y-26.359 E0.09186
G1 X-8.658 Y-28.278 E0.09186
G1 X-9.442 Y-29.063 E0.03757
G1 X-5.604 Y-29.063 E0.12991
G1 X-4.82 Y-28.278 E0.03756
G1 X-4.035 Y-29.063 E0.03757
G1 X-1.766 Y-29.063 E0.07678
G1 X-0.982 Y-28.278 E0.03757
G1 X-4.82 Y-24.44 E0.18372
G1 X-6.739 Y-26.359 E0.09186
G1 X-8.658 Y-24.44 E0.09186
G1 X-2.901 Y-18.683 E0.27558
G1 X-0.982 Y-20.602 E0.09187
G1 X-2.901 Y-22.521 E0.09186
G1 X0.937 Y-26.359 E0.18372
G1 X2.856 Y-24.44 E0.09186
G1 X0.937 Y-22.521 E0.09186
G1 X2.856 Y-20.602 E0.09186
G1 X4.775 Y-22.521 E0.09186
G1 X6.694 Y-20.602 E0.09186
G1 X2.856 Y-16.764 E0.18373
G1 X0.937 Y-18.683 E0.09186
G1 X-0.982 Y-16.764 E0.09186
G1 X0.937 Y-14.845 E0.09186
G1 X-2.827 Y-11.081 E0.18019
G1 X-2.94 Y-11.046 E0.00399
G1 X-4.82 Y-12.926 E0.09
G1 X-2.901 Y-14.845 E0.09186
G1 X-6.739 Y-18.683 E0.18372
G1 X-8.658 Y-16.764 E0.09186
G1 X-6.739 Y-14.845 E0.09187
G1 X-8.658 Y-12.926 E0.09186
G1 X-10.577 Y-14.845 E0.09186
G1 X-12.496 Y-12.926 E0.09186
G1 X-8.658 Y-9.088 E0.18372
G1 X-6.739 Y-11.007 E0.09186
G1 X-5.665 Y-9.933 E0.05141
G1 X-6.21 Y-9.603 E0.02156
G1 X-7.105 Y-8.961 E0.0373
G1 X-7.606 Y-8.541 E0.02214
G1 X-7.642 Y-8.507 E0.00168
M106 S255
G1 E-0.9 F2100
;WIPE_START
G1 F7200
G1 X-7.606 Y-8.541 E-0.0137
G1 X-7.381 Y-8.729 E-0.0813
;WIPE_END
G1 E-0.005 F2100
G1 Z49.4 F9000
; acceleration to travel
G1 X-2.376 Y-10.849
; decel to extrusion
M204 P1000 T1000
G1 X-1.152 Y-11.367
; end travel
M204 P1000 T1500
G1 Z49.2
G1 E1.000000 F2100
M106 S255
G1 F1200
G1 X-0.873 Y-11.404 E0.00953
G1 X0.32 Y-11.433 E0.04042
G1 X1.284 Y-11.354 E0.03272
G1 X4.775 Y-14.845 E0.16713
G1 X6.694 Y-12.926 E0.09186
G1 X4.775 Y-11.007 E0.09186
G1 X6.13 Y-9.653 E0.06483
G1 X6.184 Y-9.622 E0.00212
G1 X7.15 Y-8.927 E0.04028
G1 X7.553 Y-8.581 E0.01797
G1 X9.763 Y-9.857 E0.08637
G1 X8.613 Y-11.007 E0.05504
G1 X10.532 Y-12.926 E0.09187
G1 X12.196 Y-11.262 E0.07965
G1 X13.403 Y-11.958 E0.04715
G1 X14.37 Y-12.926 E0.04632
G1 X10.532 Y-16.764 E0.18372
G1 X8.613 Y-14.845 E0.09186
G1 X6.694 Y-16.764 E0.09186
G1 X10.532 Y-20.602 E0.18373
G1 X12.451 Y-18.683 E0.09186
G1 X14.37 Y-20.602 E0.09186
G1 X12.451 Y-22.521 E0.09186
G1 X16.289 Y-26.359 E0.18372
G1 X18.208 Y-24.44 E0.09186
G1 X16.289 Y-22.521 E0.09186
G1 X18.208 Y-20.602 E0.09187
G1 X20.127 Y-22.521 E0.09186
G1 X22.046 Y-20.602 E0.09186
G1 X18.208 Y-16.764 E0.18372
G1 X16.289 Y-18.683 E0.09186
G1 X14.37 Y-16.764 E0.09186
G1 X17.063 Y-14.072 E0.12889
G1 X22.483 Y-17.201 E0.21187
G1 X27.063 Y-21.78 E0.2192
G1 X27.063 Y-19.845 E0.06552
G1 X26.623 Y-19.591 E0.01716
M106 S255
G1 E-0.9 F2100
;WIPE_START
G1 F7200
G1 X26.92 Y-19.763 E-0.095
;WIPE_END
G1 E-0.005 F2100
G1 Z49.4 F9000
; acceleration to travel
G1 X24.755 Y-27.236
; decel to extrusion
M204 P1000 T1000
G1 X24.226 Y-29.063
; end travel
M204 P1000 T1500
G1 Z49.2
G1 E1.000000 F2100
M106 S255
G1 F1200
G1 X26.669 Y-29.063 E0.08268
G1 X25.884 Y-28.278 E0.03756
G1 X27.063 Y-27.099 E0.05641
G1 X27.063 Y-25.618 E0.05013
G1 X23.965 Y-22.521 E0.14828
G1 X22.046 Y-24.44 E0.09186
G1 X23.965 Y-26.359 E0.09186
G1 X22.046 Y-28.278 E0.09186
G1 X20.127 Y-26.359 E0.09186
G1 X18.208 Y-28.278 E0.09186
G1 X18.993 Y-29.063 E0.03757
G1 X15.155 Y-29.063 E0.12991
G1 X14.37 Y-28.278 E0.03756
G1 X13.585 Y-29.063 E0.03757
G1 X11.317 Y-29.063 E0.07679
G1 X10.532 Y-28.278 E0.03756
G1 X12.451 Y-26.359 E0.09186
G1 X8.613 Y-22.521 E0.18372
G1 X6.694 Y-24.44 E0.09186
G1 X8.613 Y-26.359 E0.09186
G1 X6.694 Y-28.278 E0.09187
G1 X4.775 Y-26.359 E0.09186
G1 X2.856 Y-28.278 E0.09186
G1 X3.641 Y-29.063 E0.03756
G1 X6.083 Y-29.063 E0.08268
M106 S255
G1 E-0.9 F2100
;WIPE_START
G1 F7200
G1 X5.741 Y-29.063 E-0.095
;WIPE_END
G1 E-0.005 F2100
G1 Z49.4 F9000
; acceleration to travel
G1 X7.167 Y-12.302
; decel to extrusion
M204 P1000 T1000
G1 X7.516 Y-8.207
; end travel
M204 P1000 T1500
G1 Z49.2
G1 E1.000000 F2100
;TYPE:Internal perimeter
;WIDTH:0.449999
M106 S255
G1 F1200
G1 X27.368 Y-19.669 E0.77592
G1 X27.368 Y-29.368 E0.3283
G1 X-14.368 Y-29.368 E1.41271
G1 X-14.368 Y18.868 E1.63272
G1 X-9.654 Y18.868 E0.15956
G1 X-9.087 Y18.831 E0.01924
G1 X-8.518 Y18.721 E0.01963
G1 X-7.97 Y18.537 E0.01957
G1 X-7.432 Y18.272 E0.02028
G1 X6.793 Y10.06 E0.55596
G1 X6.793 Y8.808 E0.04237
G1 X6.025 Y9.36 E0.03198
G1 X5.97 Y9.395 E0.00223
G1 X4.979 Y9.955 E0.03852
G1 X4.92 Y9.985 E0.00223
G1 X3.875 Y10.435 E0.03851
G1 X3.813 Y10.458 E0.00224
G1 X2.726 Y10.792 E0.03851
G1 X2.662 Y10.808 E0.00224
G1 X1.544 Y11.024 E0.03851
G1 X1.479 Y11.033 E0.00224
G1 X0.345 Y11.126 E0.03851
G1 X0.279 Y11.128 E0.00223
G1 X-0.858 Y11.098 E0.03852
G1 X-0.924 Y11.093 E0.00223
G1 X-2.052 Y10.941 E0.03852
G1 X-2.117 Y10.928 E0.00223
G1 X-3.221 Y10.655 E0.03851
G1 X-3.285 Y10.636 E0.00225
G1 X-4.362 Y10.241 E0.03882
G1 X-4.422 Y10.215 E0.00225
G1 X-5.443 Y9.71 E0.03854
G1 X-5.5 Y9.677 E0.00223
G1 X-6.462 Y9.064 E0.0386
G1 X-6.514 Y9.026 E0.00218
G1 X-7.402 Y8.314 E0.03854
G1 X-7.451 Y8.269 E0.00224
G1 X-8.257 Y7.465 E0.03854
G1 X-8.301 Y7.416 E0.00224
G1 X-9.015 Y6.529 E0.03854
G1 X-9.054 Y6.475 E0.00224
G1 X-9.668 Y5.517 E0.03854
G1 X-9.701 Y5.459 E0.00223
G1 X-10.208 Y4.439 E0.03855
G1 X-10.234 Y4.379 E0.00223
G1 X-10.627 Y3.31 E0.03854
G1 X-10.647 Y3.247 E0.00224
G1 X-10.923 Y2.143 E0.03854
G1 X-10.935 Y2.078 E0.00224
G1 X-11.091 Y0.95 E0.03854
G1 X-11.096 Y0.884 E0.00224
G1 X-11.128 Y-0.254 E0.03854
G1 X-11.126 Y-0.32 E0.00223
G1 X-11.036 Y-1.455 E0.03855
G1 X-11.027 Y-1.521 E0.00223
G1 X-10.814 Y-2.639 E0.03854
G1 X-10.798 Y-2.703 E0.00224
G1 X-10.465 Y-3.792 E0.03854
G1 X-10.442 Y-3.854 E0.00224
G1 X-9.994 Y-4.901 E0.03854
G1 X-9.965 Y-4.96 E0.00223
G1 X-9.406 Y-5.952 E0.03854
G1 X-9.37 Y-6.008 E0.00224
G1 X-8.707 Y-6.934 E0.03854
G1 X-8.666 Y-6.985 E0.00224
G1 X-7.907 Y-7.834 E0.03854
G1 X-7.401 Y-8.315 E0.02363
G1 X-6.957 Y-8.689 E0.01965
G1 X-6.921 Y-8.717 E0.00155
G1 X-6.038 Y-9.351 E0.03678
G1 X-5.448 Y-9.707 E0.02333
G1 X-4.977 Y-9.957 E0.01806
G1 X-4.371 Y-10.238 E0.02261
G1 X-3.872 Y-10.437 E0.01818
G1 X-3.243 Y-10.649 E0.02248
G1 X-2.721 Y-10.794 E0.01831
G1 X-2.077 Y-10.936 E0.02235
G1 X-1.539 Y-11.025 E0.01844
G1 X-0.886 Y-11.096 E0.02223
G1 X-0.339 Y-11.126 E0.01856
G1 X0.314 Y-11.127 E0.0221
G1 X0.866 Y-11.098 E0.01869
G1 X1.511 Y-11.029 E0.02197
G1 X2.06 Y-10.939 E0.01882
G1 X2.69 Y-10.802 E0.02185
G1 X3.23 Y-10.653 E0.01894
G1 X3.838 Y-10.449 E0.02172
G1 X4.362 Y-10.241 E0.01907
G1 X4.942 Y-9.975 E0.0216
G1 X5.443 Y-9.71 E0.01919
G1 X5.988 Y-9.384 E0.02147
G1 X6.46 Y-9.065 E0.01932
G1 X6.964 Y-8.685 E0.02135
G1 X7.402 Y-8.314 E0.01943
G1 X7.472 Y-8.248 E0.00326
M106 S255
M204 P1000 T1000
G1 X7.457 Y-7.703 F9000
;TYPE:External perimeter
M106 S255
G1 F1200
G1 X27.775 Y-19.434 E0.79412
G1 X27.775 Y-29.775 E0.35004
G1 X-14.775 Y-29.775 E1.44027
G1 X-14.775 Y19.275 E1.66028
G1 X-9.641 Y19.275 E0.17378
G1 X-9.035 Y19.236 E0.02056
G1 X-8.414 Y19.115 E0.02142
G1 X-7.814 Y18.914 E0.0214
G1 X-7.24 Y18.632 E0.02166
G1 X7.2 Y10.295 E0.56438
G1 X7.2 Y7.929 E0.08008
G1 X6.729 Y8.351 E0.02141
G1 X6.712 Y8.365 E0.00075
G1 X5.788 Y9.029 E0.03851
G1 X5.769 Y9.041 E0.00074
G1 X4.779 Y9.601 E0.03852
G1 X4.759 Y9.611 E0.00074
G1 X3.714 Y10.061 E0.03851
G1 X3.694 Y10.069 E0.00075
G1 X2.606 Y10.403 E0.03851
G1 X2.585 Y10.409 E0.00075
G1 X1.467 Y10.624 E0.03851
G1 X1.446 Y10.627 E0.00075
G1 X0.312 Y10.72 E0.03851
G1 X0.29 Y10.721 E0.00074
G1 X-0.848 Y10.691 E0.03852
G1 X-0.87 Y10.689 E0.00074
G1 X-1.997 Y10.537 E0.03852
G1 X-2.019 Y10.533 E0.00074
G1 X-3.123 Y10.26 E0.03851
G1 X-3.145 Y10.253 E0.00075
G1 X-4.222 Y9.859 E0.03883
G1 X-4.242 Y9.85 E0.00074
G1 X-5.262 Y9.345 E0.03855
G1 X-5.281 Y9.334 E0.00074
G1 X-6.242 Y8.721 E0.03856
G1 X-6.259 Y8.709 E0.00073
G1 X-7.147 Y7.996 E0.03854
G1 X-7.164 Y7.981 E0.00075
G1 X-7.969 Y7.177 E0.03854
G1 X-7.984 Y7.16 E0.00074
G1 X-8.698 Y6.274 E0.03854
G1 X-8.711 Y6.256 E0.00075
G1 X-9.325 Y5.297 E0.03854
G1 X-9.336 Y5.278 E0.00075
G1 X-9.843 Y4.258 E0.03854
G1 X-9.852 Y4.238 E0.00074
G1 X-10.246 Y3.17 E0.03854
G1 X-10.252 Y3.149 E0.00075
G1 X-10.528 Y2.044 E0.03854
G1 X-10.532 Y2.022 E0.00075
G1 X-10.687 Y0.894 E0.03854
G1 X-10.689 Y0.872 E0.00074
G1 X-10.721 Y-0.266 E0.03854
G1 X-10.721 Y-0.288 E0.00075
G1 X-10.63 Y-1.423 E0.03854
G1 X-10.627 Y-1.445 E0.00075
G1 X-10.414 Y-2.563 E0.03854
G1 X-10.408 Y-2.585 E0.00074
G1 X-10.076 Y-3.673 E0.03854
G1 X-10.068 Y-3.694 E0.00075
G1 X-9.62 Y-4.741 E0.03854
G1 X-9.61 Y-4.76 E0.00074
G1 X-9.051 Y-5.753 E0.03854
G1 X-9.039 Y-5.771 E0.00075
G1 X-8.376 Y-6.697 E0.03854
G1 X-8.363 Y-6.714 E0.00075
G1 X-7.604 Y-7.563 E0.03854
G1 X-7.122 Y-8.019 E0.02246
G1 X-6.683 Y-8.386 E0.01937
G1 X-5.801 Y-9.02 E0.03677
G1 X-5.239 Y-9.358 E0.0222
G1 X-4.787 Y-9.597 E0.0173
G1 X-4.2 Y-9.868 E0.02187
G1 X-3.722 Y-10.058 E0.01743
G1 X-3.113 Y-10.263 E0.02175
G1 X-2.613 Y-10.401 E0.01755
G1 X-1.989 Y-10.539 E0.02162
G1 X-1.474 Y-10.623 E0.01768
G1 X-0.842 Y-10.692 E0.0215
G1 X-0.317 Y-10.72 E0.0178
G1 X0.314 Y-10.72 E0.02138
G1 X0.843 Y-10.691 E0.01792
G1 X1.467 Y-10.624 E0.02125
G1 X1.993 Y-10.538 E0.01805
G1 X2.603 Y-10.404 E0.02113
G1 X3.12 Y-10.26 E0.01817
G1 X3.709 Y-10.063 E0.02101
G1 X4.211 Y-9.863 E0.01829
G1 X4.771 Y-9.605 E0.02088
G1 X5.252 Y-9.35 E0.01842
G1 X5.778 Y-9.035 E0.02076
G1 X6.232 Y-8.728 E0.01854
G1 X6.718 Y-8.36 E0.02063
G1 X7.138 Y-8.003 E0.01867
G1 X7.413 Y-7.744 E0.01279
M106 S255
;WIPE_START
G1 X7.599 Y-8.016 F9000
;WIPE_END
;LAYER_CHANGE
;Z:49.4
;HEIGHT:0.200001
; BEFORE_LAYER_CHANGE
;49.4
G92 E0

G1 E-0.9 F2100
;WIPE_START
G1 F7200
G1 X7.499 Y-7.688 E-0.095
;WIPE_END
G1 E-0.005 F2100
G1 Z49.4 F9000
; AFTER_LAYER_CHANGE
;49.4
G1 Z49.6
; acceleration to travel
M204 P1000 T1500
G1 X0.77 Y-10.55
; decel to extrusion
M204 P1000 T1000
G1 X-1.152 Y-11.367
; end travel
M204 P1000 T1500
G1 Z49.4
G1 E1.000000 F2100
;TYPE:Internal infill
;WIDTH:0.45
M106 S255
G1 F3600
G1 X-0.873 Y-11.404 E0.00955
G1 X0.321 Y-11.433 E0.04042
G1 X1.284 Y-11.354 E0.0327
G1 X4.775 Y-14.845 E0.16713
G1 X6.694 Y-12.926 E0.09186
G1 X4.775 Y-11.007 E0.09186
G1 X6.13 Y-9.653 E0.06484
G1 X6.184 Y-9.622 E0.00211
G1 X7.15 Y-8.927 E0.04028
G1 X7.553 Y-8.581 E0.01797
G1 X9.763 Y-9.857 E0.08637
G1 X8.613 Y-11.007 E0.05505
G1 X10.532 Y-12.926 E0.09186
G1 X12.196 Y-11.262 E0.07965
G1 X13.403 Y-11.958 E0.04716
G1 X14.37 Y-12.926 E0.04631
G1 X10.532 Y-16.764 E0.18372
G1 X8.613 Y-14.845 E0.09187
G1 X6.694 Y-16.764 E0.09186
G1 X10.532 Y-20.602 E0.18372
G1 X12.451 Y-18.683 E0.09186
G1 X14.37 Y-20.602 E0.09186
G1 X12.451 Y-22.521 E0.09186
G1 X16.289 Y-26.359 E0.18372
G1 X18.208 Y-24.44 E0.09186
G1 X16.289 Y-22.521 E0.09187
G1 X18.208 Y-20.602 E0.09186
G1 X20.127 Y-22.521 E0.09186
G1 X22.046 Y-20.602 E0.09186
G1 X18.208 Y-16.764 E0.18372
G1 X16.289 Y-18.683 E0.09186
G1 X14.37 Y-16.764 E0.09186
G1 X17.063 Y-14.072 E0.12889
G1 X22.483 Y-17.201 E0.21187
G1 X27.063 Y-21.78 E0.21921
G1 X27.063 Y-19.845 E0.06551
G1 X26.623 Y-19.591 E0.01716
M106 S255
G1 E-0.9 F2100
;WIPE_START
G1 F7200
G1 X26.92 Y-19.763 E-0.095
;WIPE_END
G1 E-0.005 F2100
G1 Z49.6 F9000
; acceleration to travel
G1 X24.825 Y-26.996
; decel to extrusion
M204 P1000 T1000
G1 X24.226 Y-29.063
; end travel
M204 P1000 T1500
G1 Z49.4
G1 E1.000000 F2100
M106 S255
G1 F3600
G1 X26.669 Y-29.063 E0.08267
G1 X25.884 Y-28.278 E0.03757
G1 X27.063 Y-27.099 E0.05641
G1 X27.063 Y-25.618 E0.05013
G1 X23.965 Y-22.521 E0.14828
G1 X22.046 Y-24.44 E0.09186
G1 X23.965 Y-26.359 E0.09186
G1 X22.046 Y-28.278 E0.09186
G1 X20.127 Y-26.359 E0.09186
G1 X18.208 Y-28.278 E0.09186
G1 X18.993 Y-29.063 E0.03757
G1 X15.155 Y-29.063 E0.12991
G1 X14.37 Y-28.278 E0.03756
G1 X13.585 Y-29.063 E0.03757
G1 X11.317 Y-29.063 E0.07679
G1 X10.532 Y-28.278 E0.03756
G1 X12.451 Y-26.359 E0.09186
G1 X8.613 Y-22.521 E0.18372
G1 X6.694 Y-24.44 E0.09186
G1 X8.613 Y-26.359 E0.09186
G1 X6.694 Y-28.278 E0.09187
G1 X4.775 Y-26.359 E0.09186
G1 X2.856 Y-28.278 E0.09186
G1 X3.641 Y-29.063 E0.03756
G1 X6.083 Y-29.063 E0.08268
M106 S255
G1 E-0.9 F2100
;WIPE_START
G1 F7200
G1 X5.741 Y-29.063 E-0.095
;WIPE_END
G1 E-0.005 F2100
G1 Z49.6 F9000
; acceleration to travel
G1 X-4.668 Y-13.075
; decel to extrusion
M204 P1000 T1000
G1 X-7.642 Y-8.507
; end travel
M204 P1000 T1500
G1 Z49.4
G1 E1.000000 F2100
M106 S255
G1 F3600
G1 X-7.606 Y-8.541 E0.00171
G1 X-7.1 Y-8.964 E0.02232
G1 X-6.213 Y-9.602 E0.03697
G1 X-5.665 Y-9.933 E0.02167
G1 X-6.739 Y-11.007 E0.05141
G1 X-8.658 Y-9.088 E0.09187
G1 X-12.496 Y-12.926 E0.18372
G1 X-10.577 Y-14.845 E0.09186
G1 X-8.658 Y-12.926 E0.09186
G1 X-6.739 Y-14.845 E0.09186
G1 X-8.658 Y-16.764 E0.09186
G1 X-6.739 Y-18.683 E0.09186
G1 X-2.901 Y-14.845 E0.18373
G1 X-4.82 Y-12.926 E0.09186
G1 X-2.94 Y-11.046 E0.08999
G1 X-2.827 Y-11.081 E0.004
G1 X0.937 Y-14.845 E0.18019
G1 X-0.982 Y-16.764 E0.09186
G1 X0.937 Y-18.683 E0.09186
G1 X2.856 Y-16.764 E0.09186
