; generated by SuperSlicer 2.5.59.13 on 2025-11-14 at 21:35:15 UTC

; 

; external perimeters extrusion width = 0.42mm
; perimeters extrusion width = 0.42mm
; infill extrusion width = 0.42mm
; solid infill extrusion width = 0.42mm
; top infill extrusion width = 0.42mm
; first layer extrusion width = 0.42mm


M107
G10 P0 R210 ; sets the standby temperature
;TYPE:Custom
; START_GCODE

T0 ; Select Titan extruder
M220 S100 ; Set feedmultiply back to 100percent

G90 ; Absolute positioning
M83; Relative Extruder

G28 ; Home all axes

M190 S50 ; Set and wait - bed temperature
M104 S210

G32 ; Probe Z and calculate Z plane
G29 ; Mesh bed probe

M572 S0.2 ;set pressure advance factor

G92 E0 ; Zero extruder
M107
G21 ; set units to millimeters
G90 ; use absolute coordinates
M83 ; use relative distances for extrusion
; FILAMENT_START_GCODE
;LAYER_CHANGE
;Z:0.2
;HEIGHT:0.2
; BEFORE_LAYER_CHANGE
;0.2
G92 E0

G1 E-1.000000 F2100
G1 Z0.2 F9000
; AFTER_LAYER_CHANGE
;0.2
G1 Z0.4
M204 P1000 T1000
G1 X10.663 Y-10.093
G1 Z0.2
G1 E1.000000 F2100
;TYPE:Skirt
;WIDTH:0.52
M107
G1 F1200
G1 X10.187 Y-11.783 E0.06963
G1 X9.044 Y-12.898 E0.06336
G1 X1.845 Y-17.045 E0.32958
G1 X0.372 Y-17.631 E0.06287
G1 X-0.347 Y-17.804 E0.02933
G1 X-1.586 Y-17.941 E0.04946
G1 X-15.000000 Y-17.951 E0.53213
G1 X-16.759 Y-17.432 E0.07276
G1 X-17.845 Y-16.26 E0.06336
G1 X-18.239 Y-14.713 E0.06335
G1 X-18.239 Y14.713 E1.16728
G1 X-17.719 Y16.472 E0.07276
G1 X-16.548 Y17.557 E0.06335
G1 X-15.000000 Y17.951 E0.06336
G1 X-1.84 Y17.951 E0.52205
G1 X-0.347 Y17.804 E0.05953
G1 X0.856 Y17.474 E0.04945
G1 X1.845 Y17.045 E0.04277
G1 X9.044 Y12.898 E0.32958
G1 X10.269 Y11.641 E0.06964
G1 X10.663 Y10.093 E0.06335
G1 X10.663 Y-10.033 E0.7984
M107
G1 E-0.9 F2100
;WIPE_START
G1 F7200
G1 X10.663 Y-9.69 E-0.095
;WIPE_END
G1 E-0.005 F2100
G1 Z0.4 F9000
; acceleration to travel
M204 P1000 T1500
G1 X7.534 Y-9.008
; decel to extrusion
M204 P1000 T1000
G1 X6.77 Y-8.842
; end travel
M204 P1000 T1500
G1 Z0.2
G1 E1.000000 F2100
;TYPE:Internal perimeter
;WIDTH:0.419818
M107
G1 F1200
G1 X6.751 Y-9.36 E0.01627
G1 X6.512 Y-9.508 E0.00881
M107
;WIDTH:0.389036
M107
G1 X6.272 Y-9.656 E0.00809
G1 X5.675 Y-10.003 E0.01988
G1 X5.197 Y-10.275 E0.01583
G1 X5.129 Y-10.313 E0.00224
G1 X4.628 Y-10.581 E0.01636
M107
;WIDTH:0.451151
M107
G1 X4.126 Y-10.849 E0.01931
G1 X3.87 Y-11.005 E0.01018
M107
;WIDTH:0.419999
M107
G1 X3.613 Y-11.16 E0.00941
G1 X0.033 Y-13.227 E0.12959
G1 X-0.516 Y-13.475 E0.01892
G1 X-1.157 Y-13.659 E0.02089
G1 X-1.814 Y-13.727 E0.02072
G1 X-2.334 Y-13.731 E0.01631
G1 X-14.313 Y-13.731 E0.37558
G1 X-14.313 Y13.731 E0.86105
G1 X-6.504 Y13.731 E0.24485
M107
M107
G1 X-1.867 Y13.731 E0.14538
G1 X-1.257 Y13.683 E0.0192
G1 X-0.695 Y13.548 E0.01811
G1 X0.053 Y13.215 E0.02565
G1 X3.661 Y11.132 E0.13063
G1 X3.893 Y10.991 E0.00854
M107
;WIDTH:0.451022
M107
G1 X4.126 Y10.849 E0.00924
G1 X4.628 Y10.581 E0.0193
M107
;WIDTH:0.389879
M107
G1 X5.129 Y10.313 E0.01641
G1 X5.694 Y9.992 E0.01873
G1 X6.185 Y9.708 E0.01637
G1 X6.418 Y9.564 E0.00791
M107
;WIDTH:0.419029
M107
G1 X6.651 Y9.419 E0.00858
G1 X6.743 Y9.366 E0.00332
G1 X6.788 Y8.823 E0.01702
G1 X6.434 Y9.096 E0.01399
M107
;WIDTH:0.38905
M107
G1 X6.079 Y9.369 E0.01288
G1 X5.523 Y9.693 E0.01853
G1 X5.026 Y9.976 E0.01644
G1 X4.974 Y10.003 E0.0017
G1 X4.459 Y10.244 E0.01637
M107
;WIDTH:0.451022
M107
G1 X3.944 Y10.485 E0.0193
G1 X3.693 Y10.557 E0.00886
M107
;WIDTH:0.419999
M107
G1 X3.442 Y10.629 E0.00819
G1 X2.796 Y10.832 E0.02123
G1 X2.737 Y10.847 E0.0019
G1 X1.622 Y11.068 E0.03565
G1 X1.562 Y11.077 E0.0019
G1 X0.429 Y11.178 E0.03565
G1 X-0.42 Y11.166 E0.02664
G1 X-0.94 Y11.142 E0.01631
G1 X-1.957 Y11.014 E0.03214
G1 X-2.016 Y11.003 E0.00189
G1 X-3.123 Y10.742 E0.03566
G1 X-3.181 Y10.725 E0.00189
G1 X-4.253 Y10.346 E0.03566
G1 X-4.309 Y10.323 E0.0019
G1 X-5.335 Y9.832 E0.03565
G1 X-5.388 Y9.803 E0.0019
G1 X-6.356 Y9.206 E0.03565
G1 X-6.405 Y9.171 E0.0019
G1 X-7.303 Y8.473 E0.03565
G1 X-7.349 Y8.434 E0.0019
G1 X-8.167 Y7.644 E0.03565
G1 X-8.209 Y7.6 E0.0019
G1 X-8.938 Y6.727 E0.03565
G1 X-8.974 Y6.679 E0.0019
G1 X-9.606 Y5.733 E0.03565
G1 X-9.636 Y5.681 E0.0019
G1 X-10.159 Y4.682 E0.03534
G1 X-10.184 Y4.628 E0.00189
G1 X-10.601 Y3.57 E0.03565
G1 X-10.62 Y3.513 E0.0019
G1 X-10.922 Y2.416 E0.03565
G1 X-10.935 Y2.357 E0.0019
G1 X-11.118 Y1.235 E0.03565
G1 X-11.124 Y1.175 E0.0019
G1 X-11.186 Y0.039 E0.03565
G1 X-11.186 Y-0.021 E0.0019
G1 X-11.126 Y-1.157 E0.03566
G1 X-11.12 Y-1.217 E0.00189
G1 X-10.939 Y-2.34 E0.03566
G1 X-10.926 Y-2.399 E0.0019
G1 X-10.626 Y-3.496 E0.03565
G1 X-10.607 Y-3.553 E0.0019
G1 X-10.191 Y-4.612 E0.03565
G1 X-10.166 Y-4.667 E0.0019
G1 X-9.64 Y-5.675 E0.03565
G1 X-9.609 Y-5.727 E0.0019
G1 X-8.978 Y-6.673 E0.03566
G1 X-8.942 Y-6.721 E0.00189
G1 X-8.213 Y-7.594 E0.03566
G1 X-8.172 Y-7.639 E0.0019
G1 X-7.349 Y-8.434 E0.03587
G1 X-7.303 Y-8.474 E0.00191
G1 X-6.405 Y-9.171 E0.03565
G1 X-6.355 Y-9.206 E0.0019
G1 X-5.388 Y-9.803 E0.03565
G1 X-5.335 Y-9.832 E0.0019
G1 X-4.309 Y-10.323 E0.03565
G1 X-4.253 Y-10.346 E0.0019
G1 X-3.181 Y-10.725 E0.03565
G1 X-3.123 Y-10.742 E0.0019
G1 X-2.016 Y-11.003 E0.03565
G1 X-1.299 Y-11.097 E0.02269
G1 X-0.768 Y-11.16 E0.01676
G1 X0.369 Y-11.18 E0.03565
G1 X0.429 Y-11.178 E0.0019
G1 X1.562 Y-11.077 E0.03565
G1 X1.622 Y-11.068 E0.0019
G1 X2.737 Y-10.846 E0.03565
G1 X3.384 Y-10.647 E0.02124
G1 X3.635 Y-10.579 E0.00816
M107
;WIDTH:0.45797
M107
G1 X3.886 Y-10.51 E0.00898
G1 X3.944 Y-10.485 E0.00216
G1 X4.459 Y-10.244 E0.01962
M107
;WIDTH:0.389967
M107
G1 X4.974 Y-10.003 E0.01642
G1 X5.503 Y-9.704 E0.01753
G1 X6.014 Y-9.411 E0.01699
G1 X6.232 Y-9.256 E0.00773
M107
;WIDTH:0.419818
M107
G1 X6.451 Y-9.101 E0.0084
G1 X6.723 Y-8.879 E0.01101
M107
M204 P1000 T1000
G1 X7.2 Y-7.921 F9000
;TYPE:External perimeter
;WIDTH:0.419999
M107
G1 F1200
G1 X7.212 Y-8.365 E0.01391
G1 X7.145 Y-8.902 E0.01697
G1 X7.12 Y-9.582 E0.02134
G1 X5.853 Y-10.317 E0.04593
G1 X3.799 Y-11.488 E0.07413
G1 X0.218 Y-13.556 E0.12965
G1 X-0.372 Y-13.824 E0.02031
G1 X-1.069 Y-14.026 E0.02274
G1 X-1.784 Y-14.103 E0.02257
G1 X-2.334 Y-14.108 E0.01724
G1 X-14.69 Y-14.108 E0.38741
G1 X-14.69 Y14.108 E0.88469
G1 X-6.504 Y14.108 E0.25667
G1 X-1.852 Y14.108 E0.14585
G1 X-1.197 Y14.056 E0.02059
G1 X-0.573 Y13.907 E0.02013
G1 X0.224 Y13.552 E0.02736
G1 X3.847 Y11.46 E0.13118
G1 X5.876 Y10.304 E0.07321
G1 X7.117 Y9.584 E0.04498
G1 X7.149 Y9.002 E0.01827
G1 X7.214 Y8.352 E0.02048
G1 X7.2 Y7.921 E0.01352
G1 X6.473 Y8.605 E0.03129
G1 X5.858 Y9.084 E0.02445
G1 X5.344 Y9.379 E0.01858
G1 X4.848 Y9.662 E0.01791
G1 X4.83 Y9.671 E0.00064
G1 X3.787 Y10.125 E0.03565
G1 X2.683 Y10.472 E0.03629
G1 X2.663 Y10.477 E0.00063
G1 X1.548 Y10.698 E0.03565
G1 X1.528 Y10.701 E0.00063
G1 X0.396 Y10.803 E0.03566
G1 X-0.413 Y10.789 E0.02537
G1 X-1.252 Y10.723 E0.02636
G1 X-1.91 Y10.64 E0.0208
G1 X-1.93 Y10.636 E0.00063
G1 X-3.036 Y10.375 E0.03566
G1 X-3.056 Y10.369 E0.00063
G1 X-4.128 Y9.991 E0.03565
G1 X-4.147 Y9.983 E0.00063
G1 X-5.172 Y9.492 E0.03566
G1 X-5.19 Y9.482 E0.00063
G1 X-6.157 Y8.885 E0.03565
G1 X-6.174 Y8.873 E0.00064
G1 X-7.072 Y8.176 E0.03565
G1 X-7.087 Y8.162 E0.00063
G1 X-7.905 Y7.373 E0.03565
G1 X-7.919 Y7.358 E0.00064
G1 X-8.648 Y6.485 E0.03565
G1 X-8.66 Y6.469 E0.00063
G1 X-9.292 Y5.524 E0.03565
G1 X-9.302 Y5.507 E0.00064
G1 X-9.825 Y4.508 E0.03534
G1 X-9.833 Y4.489 E0.00063
G1 X-10.25 Y3.432 E0.03565
G1 X-10.257 Y3.413 E0.00063
G1 X-10.558 Y2.316 E0.03565
G1 X-10.563 Y2.296 E0.00064
G1 X-10.746 Y1.174 E0.03565
G1 X-10.748 Y1.154 E0.00063
G1 X-10.809 Y0.019 E0.03566
G1 X-10.81 Y-0.001 E0.00063
G1 X-10.75 Y-1.137 E0.03565
G1 X-10.747 Y-1.157 E0.00063
G1 X-10.566 Y-2.28 E0.03566
G1 X-10.562 Y-2.299 E0.00063
G1 X-10.262 Y-3.396 E0.03565
G1 X-10.256 Y-3.415 E0.00064
G1 X-9.84 Y-4.474 E0.03565
G1 X-9.832 Y-4.492 E0.00063
G1 X-9.306 Y-5.5 E0.03566
G1 X-9.295 Y-5.518 E0.00063
G1 X-8.664 Y-6.464 E0.03565
G1 X-8.652 Y-6.48 E0.00064
G1 X-7.924 Y-7.353 E0.03565
G1 X-7.91 Y-7.368 E0.00063
G1 X-7.087 Y-8.163 E0.03587
G1 X-7.072 Y-8.176 E0.00064
G1 X-6.174 Y-8.873 E0.03565
G1 X-6.157 Y-8.885 E0.00063
G1 X-5.19 Y-9.483 E0.03566
G1 X-5.172 Y-9.492 E0.00063
G1 X-4.146 Y-9.983 E0.03565
G1 X-4.128 Y-9.991 E0.00063
G1 X-3.056 Y-10.369 E0.03566
G1 X-3.036 Y-10.375 E0.00063
G1 X-1.93 Y-10.636 E0.03565
G1 X-1.252 Y-10.723 E0.02143
G1 X-0.591 Y-10.786 E0.02081
G1 X0.375 Y-10.803 E0.03031
G1 X0.396 Y-10.803 E0.00063
G1 X1.528 Y-10.701 E0.03565
G1 X1.548 Y-10.698 E0.00063
G1 X2.663 Y-10.477 E0.03566
G1 X3.272 Y-10.287 E0.01997
G1 X3.768 Y-10.132 E0.01631
G1 X3.787 Y-10.125 E0.00063
G1 X4.83 Y-9.671 E0.03566
G1 X5.324 Y-9.39 E0.01783
G1 X5.837 Y-9.098 E0.0185
G1 X6.457 Y-8.619 E0.02457
G1 X6.887 Y-8.2 E0.01882
G1 X7.156 Y-7.961 E0.01127
M107
;WIPE_START
G1 X7.379 Y-8.641 F9000
;WIPE_END
G1 E-0.9 F2100
;WIPE_START
G1 F7200
G1 X7.344 Y-8.918 E-0.07731
G1 X7.342 Y-8.982 E-0.01769
;WIPE_END
G1 E-0.005 F2100
G1 Z0.4 F9000
; acceleration to travel
M204 P1000 T1500
G1 X3.947 Y-10.492
; decel to extrusion
M204 P1000 T1000
G1 X3.117 Y-10.86
; end travel
M204 P1000 T1500
G1 Z0.2
G1 E1.000000 F2100
;TYPE:Solid infill
;WIDTH:0.396707
M107
G1 F1200
G1 X2.487 Y-11.491 E0.0264
G1 X1.23 Y-12.215 E0.04296
G1 X2.215 Y-11.229 E0.04128
G1 X1.595 Y-11.35 E0.01872
G1 X1.557 Y-11.354 E0.00112
G1 X-0.028 Y-12.939 E0.06638
G1 X-0.252 Y-13.068 E0.00768
G1 X-0.773 Y-13.284 E0.01669
G1 X-0.948 Y-13.326 E0.00533
G1 X0.974 Y-11.404 E0.08049
G1 X0.39 Y-11.454 E0.01734
G1 X-1.588 Y-13.433 E0.08287
G1 X-1.878 Y-13.456 E0.0086
G1 X-2.144 Y-13.456 E0.0079
G1 X-0.134 Y-11.445 E0.0842
G1 X-0.656 Y-11.434 E0.01547
G1 X-2.678 Y-13.456 E0.08467
G1 X-3.211 Y-13.456 E0.01579
G1 X-1.148 Y-11.393 E0.08639
G1 X-1.622 Y-11.333 E0.01414
G1 X-3.744 Y-13.456 E0.0889
G1 X-4.277 Y-13.456 E0.01579
G1 X-2.089 Y-11.268 E0.09164
G1 X-2.52 Y-11.165 E0.01311
G1 X-4.811 Y-13.456 E0.09594
G1 X-5.344 Y-13.456 E0.01579
G1 X-2.95 Y-11.062 E0.10025
G1 X-3.264 Y-10.987 E0.00955
G1 X-3.371 Y-10.949 E0.00336
G1 X-5.877 Y-13.456 E0.10497
G1 X-6.411 Y-13.456 E0.01579
G1 X-3.764 Y-10.809 E0.11085
G1 X-4.157 Y-10.669 E0.01236
G1 X-6.944 Y-13.456 E0.11671
G1 X-7.477 Y-13.456 E0.01579
G1 X-4.539 Y-10.518 E0.12305
G1 X-4.899 Y-10.344 E0.01182
G1 X-8.01 Y-13.456 E0.13032
G1 X-8.544 Y-13.456 E0.01579
G1 X-5.259 Y-10.171 E0.13758
G1 X-5.525 Y-10.042 E0.00876
G1 X-5.61 Y-9.989 E0.00297
G1 X-9.077 Y-13.456 E0.14519
G1 X-9.61 Y-13.456 E0.01579
G1 X-5.939 Y-9.785 E0.15375
G1 X-6.268 Y-9.58 E0.01146
G1 X-10.143 Y-13.456 E0.16232
G1 X-10.677 Y-13.456 E0.01579
G1 X-6.594 Y-9.373 E0.171
G1 X-6.893 Y-9.139 E0.01125
G1 X-11.21 Y-13.456 E0.18079
G1 X-11.743 Y-13.456 E0.01579
G1 X-7.193 Y-8.905 E0.1906
G1 X-7.492 Y-8.671 E0.01125
G1 X-12.277 Y-13.456 E0.2004
G1 X-12.81 Y-13.456 E0.01579
G1 X-7.767 Y-8.413 E0.21121
G1 X-8.038 Y-8.151 E0.01117
G1 X-13.343 Y-13.456 E0.22219
G1 X-13.876 Y-13.456 E0.01579
G1 X-8.309 Y-7.889 E0.23316
G1 X-8.381 Y-7.819 E0.00296
G1 X-8.559 Y-7.605 E0.00825
G1 X-14.038 Y-13.084 E0.22945
G1 X-14.038 Y-12.55 E0.01579
G1 X-8.801 Y-7.314 E0.21931
G1 X-9.044 Y-7.023 E0.01121
G1 X-14.038 Y-12.017 E0.20916
G1 X-14.038 Y-11.484 E0.0158
G1 X-9.276 Y-6.722 E0.19944
G1 X-9.488 Y-6.401 E0.0114
G1 X-14.038 Y-10.951 E0.19054
G1 X-14.038 Y-10.417 E0.0158
G1 X-9.701 Y-6.08 E0.18164
G1 X-9.88 Y-5.81 E0.0096
G1 X-9.908 Y-5.755 E0.00185
G1 X-14.038 Y-9.884 E0.17294
G1 X-14.038 Y-9.351 E0.01579
G1 X-10.09 Y-5.404 E0.16533
G1 X-10.272 Y-5.052 E0.01171
G1 X-14.038 Y-8.818 E0.1577
G1 X-14.038 Y-8.284 E0.0158
G1 X-10.453 Y-4.699 E0.15015
G1 X-10.602 Y-4.315 E0.0122
G1 X-14.038 Y-7.751 E0.1439
G1 X-14.038 Y-7.218 E0.01579
G1 X-10.751 Y-3.931 E0.13765
G1 X-10.889 Y-3.577 E0.01126
G1 X-10.898 Y-3.545 E0.00099
G1 X-14.038 Y-6.684 E0.1315
G1 X-14.038 Y-6.151 E0.0158
G1 X-11.011 Y-3.125 E0.12675
G1 X-11.125 Y-2.705 E0.01288
G1 X-14.038 Y-5.618 E0.12201
G1 X-14.038 Y-5.085 E0.01579
G1 X-11.228 Y-2.275 E0.1177
G1 X-11.3 Y-1.814 E0.0138
G1 X-14.038 Y-4.551 E0.11465
G1 X-14.038 Y-4.018 E0.01579
G1 X-11.373 Y-1.354 E0.1116
G1 X-11.4 Y-1.181 E0.00519
G1 X-11.417 Y-0.864 E0.00938
G1 X-14.038 Y-3.485 E0.10976
G1 X-14.038 Y-2.952 E0.01579
G1 X-11.443 Y-0.357 E0.10866
G1 X-11.462 Y0.009 E0.01085
G1 X-11.454 Y0.165 E0.00465
G1 X-14.038 Y-2.418 E0.10821
G1 X-14.038 Y-1.885 E0.01579
G1 X-11.424 Y0.729 E0.10948
G1 X-11.399 Y1.199 E0.01393
G1 X-11.382 Y1.304 E0.00317
G1 X-14.038 Y-1.352 E0.11123
G1 X-14.038 Y-0.818 E0.0158
G1 X-11.28 Y1.939 E0.11548
G1 X-11.204 Y2.419 E0.01439
G1 X-11.154 Y2.598 E0.00552
G1 X-14.038 Y-0.285 E0.12076
G1 X-14.038 Y0.248 E0.0158
G1 X-10.951 Y3.335 E0.12927
G1 X-10.861 Y3.662 E0.01006
G1 X-10.668 Y4.151 E0.01557
G1 X-14.038 Y0.781 E0.14115
G1 X-14.038 Y1.315 E0.01579
G1 X-9.864 Y5.488 E0.1748
M107
G1 E-0.9 F2100
;WIPE_START
G1 F7200
G1 X-10.107 Y5.246 E-0.095
;WIPE_END
G1 E-0.005 F2100
G1 Z0.4 F9000
; acceleration to travel
G1 X0.429 Y9.782
; decel to extrusion
M204 P1000 T1000
G1 X3.004 Y10.89
; end travel
M204 P1000 T1500
G1 Z0.2
G1 E1.000000 F2100
M107
G1 F1200
G1 X3.196 Y11.083 E0.00807
G1 X2.858 Y11.278 E0.01156
G1 X2.712 Y11.132 E0.00611
G1 X2.267 Y11.221 E0.01343
G1 X2.52 Y11.473 E0.01058
G1 X2.182 Y11.668 E0.01156
G1 X1.823 Y11.309 E0.01504
G1 X1.666 Y11.34 E0.00473
G1 X1.35 Y11.369 E0.00941
G1 X1.844 Y11.863 E0.02069
G1 X1.506 Y12.059 E0.01156
G1 X0.862 Y11.415 E0.02697
G1 X0.445 Y11.453 E0.0124
G1 X0.366 Y11.452 E0.00234
G1 X1.168 Y12.254 E0.03358
G1 X0.83 Y12.449 E0.01156
G1 X-0.175 Y11.444 E0.04209
G1 X-0.717 Y11.436 E0.01603
G1 X0.492 Y12.644 E0.05059
G1 X0.153 Y12.839 E0.01156
G1 X-1.316 Y11.37 E0.06155
G1 X-1.924 Y11.295 E0.01814
G1 X-0.195 Y13.024 E0.07241
G1 X-0.564 Y13.188 E0.01196
G1 X-2.611 Y11.142 E0.08572
G1 X-3.264 Y10.987 E0.01988
G1 X-3.317 Y10.968 E0.00168
G1 X-0.958 Y13.328 E0.09884
G1 X-1.3 Y13.41 E0.01042
G1 X-1.401 Y13.418 E0.003
G1 X-4.146 Y10.673 E0.11497
G1 X-4.42 Y10.575 E0.00862
G1 X-5.11 Y10.243 E0.02267
G1 X-1.897 Y13.456 E0.13456
G1 X-2.43 Y13.456 E0.01579
G1 X-6.358 Y9.528 E0.16451
G1 X-6.508 Y9.435 E0.00524
G1 X-7.479 Y8.685 E0.03633
G1 X-8.377 Y7.824 E0.03685
G1 X-9.198 Y6.839 E0.03796
G1 X-9.497 Y6.389 E0.016
G1 X-14.038 Y1.848 E0.1902
G1 X-14.038 Y2.381 E0.01579
G1 X-2.963 Y13.456 E0.46383
G1 X-3.496 Y13.456 E0.01579
G1 X-14.038 Y2.914 E0.44149
G1 X-14.038 Y3.448 E0.0158
G1 X-4.03 Y13.456 E0.41916
G1 X-4.563 Y13.456 E0.01579
G1 X-14.038 Y3.981 E0.39682
G1 X-14.038 Y4.514 E0.0158
G1 X-5.096 Y13.456 E0.37449
G1 X-5.63 Y13.456 E0.01579
G1 X-14.038 Y5.047 E0.35216
G1 X-14.038 Y5.581 E0.01579
G1 X-6.163 Y13.456 E0.32982
G1 X-6.696 Y13.456 E0.01579
G1 X-14.038 Y6.114 E0.30749
G1 X-14.038 Y6.647 E0.01579
G1 X-7.229 Y13.456 E0.28515
G1 X-7.763 Y13.456 E0.01579
G1 X-14.038 Y7.181 E0.26282
G1 X-14.038 Y7.714 E0.01579
G1 X-8.296 Y13.456 E0.24049
G1 X-8.829 Y13.456 E0.01579
G1 X-14.038 Y8.247 E0.21815
G1 X-14.038 Y8.78 E0.01579
G1 X-9.362 Y13.456 E0.19581
G1 X-9.896 Y13.456 E0.01579
G1 X-14.038 Y9.314 E0.17348
G1 X-14.038 Y9.847 E0.01579
G1 X-10.429 Y13.456 E0.15115
G1 X-10.962 Y13.456 E0.01579
G1 X-14.038 Y10.38 E0.12881
G1 X-14.038 Y10.913 E0.01579
G1 X-11.495 Y13.456 E0.10648
G1 X-12.029 Y13.456 E0.01579
G1 X-14.038 Y11.447 E0.08414
G1 X-14.038 Y11.98 E0.01579
G1 X-12.562 Y13.456 E0.0618
G1 X-13.095 Y13.456 E0.0158
G1 X-14.038 Y12.513 E0.03947
G1 X-14.038 Y13.047 E0.01579
G1 X-13.466 Y13.618 E0.02393
M107
;LAYER_CHANGE
;Z:0.4
;HEIGHT:0.2
; BEFORE_LAYER_CHANGE
;0.4
G92 E0

G1 E-0.9 F2100
;WIPE_START
G1 F7200
G1 X-13.709 Y13.375 E-0.095
;WIPE_END
G1 E-0.005 F2100
G1 Z0.4 F9000
; AFTER_LAYER_CHANGE
;0.4
G1 Z0.6
; acceleration to travel
G1 X-17.342 Y14.448
; decel to extrusion
M204 P1000 T1000
G1 X-18.239 Y14.713
; end travel
M204 P1000 T1500
G1 Z0.4
G1 E1.000000 F2100
;TYPE:Skirt
;WIDTH:0.52
M107
G1 F1500
G1 X-17.719 Y16.472 E0.07276
G1 X-16.548 Y17.557 E0.06335
G1 X-15.000000 Y17.951 E0.06336
G1 X-1.84 Y17.951 E0.52205
G1 X-0.347 Y17.804 E0.05953
G1 X0.856 Y17.474 E0.04945
G1 X1.845 Y17.045 E0.04277
G1 X9.044 Y12.898 E0.32958
G1 X10.269 Y11.641 E0.06964
G1 X10.663 Y10.093 E0.06336
G1 X10.663 Y-10.093 E0.80077
G1 X10.187 Y-11.783 E0.06964
G1 X9.044 Y-12.898 E0.06335
G1 X1.845 Y-17.045 E0.32958
