; generated by SuperSlicer 2.5.59.13 on 2025-11-14 at 21:35:40 UTC

; 

; external perimeters extrusion width = 0.45mm
; perimeters extrusion width = 0.45mm
; infill extrusion width = 0.45mm
; solid infill extrusion width = 0.45mm
; top infill extrusion width = 0.40mm


M106 S255
M140 S50 ; set bed temperature
G10 P0 R210 ; sets the standby temperature
G10 P0 S210 ; set temperature
;TYPE:Custom
G1 E1 F1800
G21 ; set units to millimeters
G90 ; use absolute coordinates
M83 ; use relative distances for extrusion
; FILAMENT_START_GCODE
G10 P0 S210 ; set temperature
M116 ; wait for temperature to be reached
M190 S50 ; set bed temperature and wait for it to be reached
;LAYER_CHANGE
;Z:30.2
;HEIGHT:30.200001
; BEFORE_LAYER_CHANGE
;30.2
G92 E0

G1 E-1.000000 F2100
G1 Z0.2 F9000
G1 Z30.2
; AFTER_LAYER_CHANGE
;30.2
G1 Z30.4
M204 P1000 T1000
G1 X-1.155 Y-11.366
G1 Z30.2
G1 E1.000000 F2100
;TYPE:Internal infill
;WIDTH:0.45
;HEIGHT:0.2
M106 S255
G1 F1200
G1 X-0.876 Y-11.403 E0.00951
G1 X0.287 Y-11.433 E0.03938
G1 X1.281 Y-11.351 E0.03378
G1 X3.275 Y-13.345 E0.09545
G1 X5.194 Y-11.426 E0.09186
G1 X4.335 Y-10.567 E0.04114
G1 X5.051 Y-10.261 E0.02636
G1 X6.195 Y-9.614 E0.04448
G1 X7.136 Y-8.938 E0.03923
G1 X7.544 Y-8.576 E0.01845
G1 X7.861 Y-8.759 E0.01241
G1 X7.113 Y-9.507 E0.03581
G1 X9.032 Y-11.426 E0.09186
G1 X10.294 Y-10.164 E0.06042
G1 X12.728 Y-11.569 E0.0951
G1 X9.032 Y-15.264 E0.17689
G1 X7.113 Y-13.345 E0.09186
G1 X5.194 Y-15.264 E0.09186
G1 X9.032 Y-19.102 E0.18372
G1 X10.951 Y-17.183 E0.09186
G1 X12.87 Y-19.102 E0.09187
G1 X10.951 Y-21.021 E0.09186
G1 X14.789 Y-24.859 E0.18372
G1 X16.708 Y-22.94 E0.09186
G1 X14.789 Y-21.021 E0.09186
G1 X16.708 Y-19.102 E0.09186
G1 X18.627 Y-21.021 E0.09186
G1 X20.546 Y-19.102 E0.09186
G1 X16.708 Y-15.264 E0.18373
G1 X14.789 Y-17.183 E0.09186
G1 X12.87 Y-15.264 E0.09186
G1 X15.161 Y-12.973 E0.10964
G1 X22.483 Y-17.201 E0.28621
G1 X26.303 Y-21.021 E0.18285
G1 X27.063 Y-20.261 E0.03636
G1 X27.063 Y-26.063 E0.19636
G1 X25.099 Y-26.063 E0.06646
G1 X26.303 Y-24.859 E0.05762
G1 X22.465 Y-21.021 E0.18372
G1 X20.546 Y-22.94 E0.09186
G1 X22.465 Y-24.859 E0.09186
G1 X21.261 Y-26.063 E0.05763
G1 X19.831 Y-26.063 E0.04842
G1 X18.627 Y-24.859 E0.05762
G1 X17.423 Y-26.063 E0.05762
G1 X9.747 Y-26.063 E0.25982
G1 X10.951 Y-24.859 E0.05762
G1 X7.113 Y-21.021 E0.18373
G1 X5.194 Y-22.94 E0.09186
G1 X7.113 Y-24.859 E0.09186
G1 X5.909 Y-26.063 E0.05762
G1 X4.479 Y-26.063 E0.04842
G1 X3.275 Y-24.859 E0.05762
G1 X2.071 Y-26.063 E0.05763
G1 X-3.197 Y-26.063 E0.17833
G1 X-6.32 Y-22.94 E0.14948
G1 X-8.239 Y-24.859 E0.09186
G1 X-10.158 Y-22.94 E0.09186
G1 X-4.401 Y-17.183 E0.27559
G1 X-2.482 Y-19.102 E0.09186
G1 X-4.401 Y-21.021 E0.09186
G1 X-0.563 Y-24.859 E0.18372
G1 X1.356 Y-22.94 E0.09186
G1 X-0.563 Y-21.021 E0.09186
G1 X1.356 Y-19.102 E0.09186
G1 X3.275 Y-21.021 E0.09186
G1 X5.194 Y-19.102 E0.09187
G1 X1.356 Y-15.264 E0.18372
G1 X-0.563 Y-17.183 E0.09186
G1 X-2.482 Y-15.264 E0.09186
G1 X-0.563 Y-13.345 E0.09186
G1 X-2.851 Y-11.057 E0.10953
G1 X-3.379 Y-10.926 E0.01842
G1 X-4.539 Y-10.497 E0.04187
G1 X-5.108 Y-10.214 E0.0215
G1 X-6.32 Y-11.426 E0.05801
G1 X-4.401 Y-13.345 E0.09186
G1 X-8.239 Y-17.183 E0.18373
G1 X-10.158 Y-15.264 E0.09186
G1 X-8.239 Y-13.345 E0.09186
G1 X-10.158 Y-11.426 E0.09186
G1 X-11.063 Y-12.331 E0.04332
G1 X-11.063 Y-8.493 E0.12991
G1 X-10.158 Y-7.588 E0.04332
G1 X-8.239 Y-9.507 E0.09186
G1 X-7.422 Y-8.69 E0.03912
G1 X-7.589 Y-8.555 E0.00727
G1 X-8.075 Y-8.1 E0.02255
G1 X-8.939 Y-7.135 E0.04383
G1 X-9.093 Y-6.918 E0.00902
M106 S255
G1 E-0.9 F2100
;WIPE_START
G1 F7200
G1 X-8.939 Y-7.135 E-0.07383
G1 X-8.888 Y-7.191 E-0.02117
;WIPE_END
G1 E-0.005 F2100
G1 Z30.4 F9000
; acceleration to travel
M204 P1000 T1500
G1 X-10.636 Y-14.073
; decel to extrusion
M204 P1000 T1000
G1 X-11.063 Y-15.755
; end travel
M204 P1000 T1500
G1 Z30.2
G1 E1.000000 F2100
M106 S255
G1 F1200
G1 X-11.063 Y-18.197 E0.08268
G1 X-10.158 Y-19.102 E0.04331
G1 X-11.063 Y-20.007 E0.04332
G1 X-11.063 Y-25.873 E0.19856
G1 X-10.873 Y-26.063 E0.00908
G1 X-8.43 Y-26.063 E0.08268
M106 S255
G1 E-0.9 F2100
;WIPE_START
G1 F7200
G1 X-8.773 Y-26.063 E-0.095
;WIPE_END
G1 E-0.005 F2100
G1 Z30.4 F9000
; acceleration to travel
G1 X-10.598 Y-1.413
; decel to extrusion
M204 P1000 T1000
G1 X-11.044 Y4.609
; end travel
M204 P1000 T1500
G1 Z30.2
G1 E1.000000 F2100
M106 S255
G1 F1200
G1 X-11.042 Y3.041 E0.05308
G1 X-11.004 Y3.079 E0.00183
G1 X-10.921 Y3.396 E0.01107
G1 X-10.573 Y4.342 E0.03411
G1 X-11.045 Y4.813 E0.02257
G1 X-11.052 Y10.707 E0.19952
G1 X-10.158 Y11.602 E0.04282
G1 X-11.055 Y12.499 E0.04293
G1 X-11.062 Y18.374 E0.19885
G1 X-10.878 Y18.558 E0.00883
G1 X-9.424 Y18.545 E0.04919
G1 X-8.239 Y17.359 E0.05676
G1 X-10.158 Y15.44 E0.09186
G1 X-8.239 Y13.521 E0.09186
G1 X-5.155 Y16.605 E0.14763
G1 X-1.587 Y14.545 E0.13945
G1 X-0.563 Y13.521 E0.04903
G1 X-0.288 Y13.795 E0.01313
G1 X4.578 Y10.986 E0.1902
G1 X4.213 Y10.621 E0.01747
G1 X3.985 Y10.72 E0.00842
G1 X2.728 Y11.107 E0.04452
G1 X1.647 Y11.311 E0.03722
G1 X1.356 Y11.602 E0.01394
G1 X1.123 Y11.368 E0.01118
G1 X0.357 Y11.431 E0.026
G1 X-0.879 Y11.403 E0.04186
G1 X-2.106 Y11.241 E0.04189
G1 X-3.085 Y10.999 E0.03413
G1 X-2.482 Y11.602 E0.02887
G1 X-4.401 Y13.521 E0.09186
G1 X-10.158 Y7.764 E0.27559
G1 X-9.188 Y6.795 E0.0464
G1 X-8.539 Y7.608 E0.03522
G1 X-7.656 Y8.496 E0.04242
G1 X-7.54 Y8.59 E0.00503
M106 S255
G1 E-0.9 F2100
;WIPE_START
G1 F7200
G1 X-7.656 Y8.496 E-0.0412
G1 X-7.792 Y8.359 E-0.0538
;WIPE_END
G1 E-0.005 F2100
G1 Z30.4 F9000
; acceleration to travel
G1 X3.929 Y8.72
; decel to extrusion
M204 P1000 T1000
G1 X6.793 Y8.808
; end travel
M204 P1000 T1500
G1 Z30.2
G1 E1.000000 F2100
;TYPE:Internal perimeter
;WIDTH:0.4624
M106 S255
G1 F1200
G1 X6.025 Y9.36 E0.03298
G1 X5.969 Y9.396 E0.0023
G1 X4.978 Y9.956 E0.0397
G1 X4.919 Y9.985 E0.00231
G1 X3.874 Y10.435 E0.03969
G1 X3.812 Y10.458 E0.00231
G1 X2.724 Y10.793 E0.0397
G1 X2.66 Y10.809 E0.0023
G1 X1.542 Y11.024 E0.0397
G1 X1.477 Y11.033 E0.0023
G1 X0.343 Y11.126 E0.0397
G1 X0.277 Y11.128 E0.00231
G1 X-0.861 Y11.098 E0.03969
G1 X-0.927 Y11.093 E0.00231
G1 X-2.055 Y10.94 E0.0397
G1 X-2.12 Y10.928 E0.0023
G1 X-3.225 Y10.654 E0.0397
G1 X-3.288 Y10.635 E0.0023
G1 X-4.358 Y10.243 E0.03974
G1 X-4.418 Y10.217 E0.00231
G1 X-5.439 Y9.712 E0.0397
G1 X-5.496 Y9.68 E0.00231
G1 X-6.456 Y9.068 E0.0397
G1 X-6.51 Y9.029 E0.0023
G1 X-7.397 Y8.318 E0.03969
G1 X-7.447 Y8.273 E0.00231
G1 X-8.263 Y7.458 E0.04024
G1 X-8.308 Y7.409 E0.00232
G1 X-9.021 Y6.521 E0.03974
G1 X-9.06 Y6.467 E0.00231
G1 X-9.673 Y5.507 E0.03973
G1 X-9.706 Y5.45 E0.00231
G1 X-10.212 Y4.429 E0.03973
G1 X-10.238 Y4.368 E0.00231
G1 X-10.631 Y3.299 E0.03974
G1 X-10.651 Y3.236 E0.0023
G1 X-10.932 Y2.132 E0.03974
G1 X-10.944 Y2.066 E0.00233
G1 X-11.002 Y1.499 E0.01988
M106 S255
;WIDTH:0.385151
M106 S255
G1 X-11.06 Y0.932 E0.01622
G1 X-11.063 Y0.87 E0.00178
G1 X-11.086 Y-0.27 E0.03242
G1 X-11.085 Y-0.331 E0.00175
G1 X-11.05 Y-0.9 E0.01622
M106 S255
;WIDTH:0.413805
M106 S255
G1 X-11.016 Y-1.468 E0.01757
G1 X-11.01 Y-1.533 E0.00198
G1 X-10.91 Y-2.093 E0.01757
M106 S255
;WIDTH:0.449999
M106 S255
G1 X-10.81 Y-2.654 E0.01928
G1 X-10.794 Y-2.718 E0.00224
G1 X-10.46 Y-3.808 E0.03856
G1 X-10.437 Y-3.87 E0.00224
G1 X-9.987 Y-4.916 E0.03856
G1 X-9.957 Y-4.975 E0.00224
G1 X-9.397 Y-5.967 E0.03856
G1 X-9.361 Y-6.023 E0.00224
G1 X-8.697 Y-6.948 E0.03856
G1 X-8.655 Y-7 E0.00224
G1 X-7.895 Y-7.847 E0.03855
G1 X-7.43 Y-8.289 E0.0217
G1 X-7.392 Y-8.322 E0.00169
G1 X-6.504 Y-9.033 E0.03852
G1 X-6.451 Y-9.072 E0.00223
G1 X-5.491 Y-9.683 E0.03851
G1 X-5.433 Y-9.715 E0.00224
G1 X-4.413 Y-10.219 E0.03851
G1 X-4.352 Y-10.245 E0.00223
G1 X-3.284 Y-10.636 E0.03852
G1 X-3.221 Y-10.655 E0.00223
G1 X-2.116 Y-10.928 E0.03851
G1 X-2.051 Y-10.941 E0.00224
G1 X-0.924 Y-11.093 E0.03851
G1 X-0.858 Y-11.098 E0.00224
G1 X0.279 Y-11.128 E0.03851
G1 X0.345 Y-11.126 E0.00223
G1 X1.479 Y-11.033 E0.03851
G1 X1.545 Y-11.024 E0.00224
G1 X2.662 Y-10.808 E0.03851
G1 X2.726 Y-10.792 E0.00224
G1 X3.813 Y-10.458 E0.03851
G1 X4.298 Y-10.253 E0.01781
G1 X4.92 Y-9.985 E0.02293
G1 X4.979 Y-9.955 E0.00224
G1 X5.97 Y-9.395 E0.03851
G1 X6.025 Y-9.359 E0.00224
G1 X6.949 Y-8.696 E0.03851
G1 X7.506 Y-8.201 E0.02519
G1 X27.368 Y-19.669 E0.77631
G1 X27.368 Y-22.121 E0.083
M106 S255
M106 S255
G1 X27.368 Y-26.368 E0.14376
G1 X-11.368 Y-26.368 E1.31116
G1 X-11.368 Y-2.707 E0.80089
G1 X-11.376 Y-2.138 E0.01928
M106 S255
;WIDTH:0.419543
M106 S255
G1 X-11.383 Y-1.568 E0.01784
G1 X-11.386 Y-1.484 E0.00265
G1 X-11.398 Y-0.914 E0.01784
M106 S255
;WIDTH:0.3675
M106 S255
G1 X-11.409 Y-0.344 E0.01538
G1 X-11.41 Y-0.265 E0.00213
G1 X-11.402 Y0.874 E0.03075
G1 X-11.4 Y0.955 E0.00219
G1 X-11.381 Y1.525 E0.01538
M106 S255
;WIDTH:0.4624
M106 S255
G1 X-11.362 Y2.094 E0.01988
G1 X-11.362 Y2.184 E0.00314
G1 X-11.368 Y3.324 E0.03973
G1 X-11.368 Y18.868 E0.54219
G1 X-9.65 Y18.868 E0.05991
G1 X-8.794 Y18.773 E0.03005
G1 X-8.196 Y18.612 E0.0216
G1 X-7.519 Y18.314 E0.0258
G1 X-7.345 Y18.222 E0.00689
G1 X6.793 Y10.06 E0.56938
G1 X6.793 Y8.868 E0.04156
M106 S255
M204 P1000 T1000
G1 X7.2 Y7.929 F9000
;TYPE:External perimeter
;WIDTH:0.449999
M106 S255
G1 F1200
G1 X6.729 Y8.351 E0.02142
G1 X6.711 Y8.365 E0.00074
G1 X5.787 Y9.029 E0.03853
G1 X5.769 Y9.041 E0.00074
G1 X4.778 Y9.602 E0.03853
G1 X4.758 Y9.611 E0.00075
G1 X3.713 Y10.062 E0.03852
G1 X3.692 Y10.069 E0.00075
G1 X2.604 Y10.404 E0.03852
G1 X2.583 Y10.409 E0.00075
G1 X1.465 Y10.624 E0.03852
G1 X1.444 Y10.627 E0.00075
G1 X0.309 Y10.72 E0.03852
G1 X0.287 Y10.721 E0.00075
G1 X-0.851 Y10.691 E0.03852
G1 X-0.872 Y10.689 E0.00075
G1 X-2 Y10.537 E0.03852
G1 X-2.022 Y10.532 E0.00075
G1 X-3.127 Y10.259 E0.03852
G1 X-3.148 Y10.252 E0.00075
G1 X-4.218 Y9.861 E0.03856
G1 X-4.238 Y9.852 E0.00075
G1 X-5.258 Y9.347 E0.03853
G1 X-5.277 Y9.336 E0.00074
G1 X-6.237 Y8.725 E0.03853
G1 X-6.255 Y8.712 E0.00075
G1 X-7.143 Y8 E0.03851
G1 X-7.159 Y7.985 E0.00075
G1 X-7.976 Y7.17 E0.03904
G1 X-7.99 Y7.154 E0.00075
G1 X-8.704 Y6.266 E0.03857
G1 X-8.717 Y6.248 E0.00074
G1 X-9.33 Y5.288 E0.03856
G1 X-9.341 Y5.269 E0.00075
G1 X-9.848 Y4.248 E0.03856
G1 X-9.856 Y4.228 E0.00075
G1 X-10.249 Y3.158 E0.03856
G1 X-10.256 Y3.137 E0.00075
G1 X-10.531 Y2.032 E0.03856
G1 X-10.535 Y2.01 E0.00074
G1 X-10.688 Y0.881 E0.03857
G1 X-10.69 Y0.859 E0.00074
G1 X-10.721 Y-0.279 E0.03856
G1 X-10.721 Y-0.301 E0.00075
G1 X-10.628 Y-1.437 E0.03856
G1 X-10.625 Y-1.459 E0.00075
G1 X-10.41 Y-2.578 E0.03856
G1 X-10.405 Y-2.599 E0.00075
G1 X-10.071 Y-3.688 E0.03856
G1 X-10.063 Y-3.709 E0.00074
G1 X-9.613 Y-4.755 E0.03857
G1 X-9.603 Y-4.775 E0.00074
G1 X-9.042 Y-5.767 E0.03856
G1 X-9.031 Y-5.785 E0.00075
G1 X-8.366 Y-6.711 E0.03856
G1 X-8.352 Y-6.728 E0.00075
G1 X-7.592 Y-7.576 E0.03855
G1 X-7.138 Y-8.004 E0.02113
G1 X-6.25 Y-8.715 E0.03851
G1 X-6.232 Y-8.728 E0.00075
G1 X-5.272 Y-9.339 E0.03851
G1 X-5.253 Y-9.35 E0.00074
G1 X-4.233 Y-9.854 E0.03851
G1 X-4.213 Y-9.863 E0.00075
G1 X-3.144 Y-10.253 E0.03851
G1 X-3.123 Y-10.26 E0.00075
G1 X-2.019 Y-10.533 E0.03851
G1 X-1.997 Y-10.537 E0.00074
G1 X-0.869 Y-10.689 E0.03852
G1 X-0.847 Y-10.691 E0.00074
G1 X0.29 Y-10.721 E0.03851
G1 X0.312 Y-10.72 E0.00075
G1 X1.446 Y-10.627 E0.03851
G1 X1.468 Y-10.624 E0.00074
G1 X2.585 Y-10.409 E0.03852
G1 X2.606 Y-10.403 E0.00074
G1 X3.694 Y-10.069 E0.03851
G1 X4.759 Y-9.611 E0.03926
G1 X4.779 Y-9.601 E0.00074
G1 X5.769 Y-9.041 E0.03852
G1 X5.788 Y-9.029 E0.00074
G1 X6.712 Y-8.365 E0.03851
G1 X7.454 Y-7.701 E0.0337
G1 X27.775 Y-19.434 E0.79426
G1 X27.775 Y-26.775 E0.24849
G1 X-11.775 Y-26.775 E1.33872
G1 X-11.775 Y19.275 E1.55874
G1 X-9.64 Y19.275 E0.07228
G1 X-9.112 Y19.235 E0.0179
G1 X-8.539 Y19.145 E0.01965
G1 X-7.874 Y18.938 E0.02356
G1 X-7.24 Y18.631 E0.02386
G1 X7.2 Y10.295 E0.56436
G1 X7.2 Y7.989 E0.07805
M106 S255
;WIPE_START
G1 X6.579 Y8.214 F9000
;WIPE_END
;LAYER_CHANGE
;Z:30.4
;HEIGHT:0.199999
; BEFORE_LAYER_CHANGE
;30.4
G92 E0

G1 E-0.9 F2100
;WIPE_START
G1 F7200
G1 X6.3 Y8.414 E-0.095
;WIPE_END
G1 E-0.005 F2100
G1 Z30.4 F9000
; AFTER_LAYER_CHANGE
;30.4
G1 Z30.6
; acceleration to travel
M204 P1000 T1500
G1 X3.31 Y11.035
; decel to extrusion
M204 P1000 T1000
G1 X2.456 Y11.784
; end travel
M204 P1000 T1500
G1 Z30.4
G1 E1.000000 F2100
;TYPE:Internal infill
;WIDTH:0.45
M106 S255
G1 F3600
G1 X2.993 Y11.781 E0.01818
G1 X3.021 Y11.885 E0.00363
G1 X4.578 Y10.986 E0.06086
G1 X4.213 Y10.621 E0.01747
G1 X3.986 Y10.72 E0.0084
G1 X2.804 Y11.088 E0.0419
G1 X1.648 Y11.31 E0.03984
G1 X1.356 Y11.602 E0.01396
G1 X1.121 Y11.367 E0.01125
G1 X0.279 Y11.433 E0.02859
G1 X-0.88 Y11.403 E0.03924
G1 X-2.106 Y11.241 E0.04188
G1 X-3.085 Y10.999 E0.03412
G1 X-2.482 Y11.602 E0.02888
G1 X-2.691 Y11.811 E0.00999
G1 X-6.093 Y11.828 E0.11518
G1 X-10.158 Y7.764 E0.19456
G1 X-9.188 Y6.795 E0.04641
G1 X-8.539 Y7.608 E0.03521
G1 X-7.655 Y8.497 E0.04244
G1 X-7.54 Y8.59 E0.00502
M106 S255
G1 E-0.9 F2100
;WIPE_START
G1 F7200
G1 X-7.655 Y8.497 E-0.04106
G1 X-7.792 Y8.359 E-0.05394
;WIPE_END
G1 E-0.005 F2100
G1 Z30.6 F9000
; acceleration to travel
G1 X-7.395 Y11.062
; decel to extrusion
M204 P1000 T1000
G1 X-7.281 Y11.835
; end travel
M204 P1000 T1500
G1 Z30.4
G1 E1.000000 F2100
M106 S255
G1 F3600
G1 X-7.887 Y11.838 E0.02051
G1 X-8.225 Y12.177 E0.0162
G1 X-8.225 Y13.535 E0.04596
G1 X-8.239 Y13.521 E0.00068
G1 X-10.158 Y15.44 E0.09186
G1 X-8.239 Y17.359 E0.09186
G1 X-9.425 Y18.545 E0.05678
G1 X-10.877 Y18.558 E0.04917
G1 X-11.062 Y18.374 E0.00884
G1 X-11.055 Y12.499 E0.19886
G1 X-10.158 Y11.602 E0.04293
G1 X-11.052 Y10.707 E0.04282
G1 X-11.045 Y4.813 E0.19952
G1 X-10.573 Y4.342 E0.02256
G1 X-10.921 Y3.396 E0.03411
G1 X-11.004 Y3.079 E0.01107
G1 X-11.042 Y3.041 E0.00183
G1 X-11.044 Y4.609 E0.05308
M106 S255
G1 E-0.9 F2100
;WIPE_START
G1 F7200
G1 X-11.044 Y4.267 E-0.095
;WIPE_END
G1 E-0.005 F2100
G1 Z30.6 F9000
; acceleration to travel
G1 X-8.636 Y10.795
; decel to extrusion
M204 P1000 T1000
G1 X-8.002 Y12.517
; end travel
M204 P1000 T1500
G1 Z30.4
G1 E1.000000 F2100
;TYPE:Internal bridge infill
;WIDTH:0.389872
;HEIGHT:0.389872
M106 S255
G1 F2700
G1 X-7.712 Y12.228 E0.0203
G1 X-7.088 Y12.224 E0.03098
G1 X-7.834 Y12.97 E0.05234
G1 X-7.834 Y13.591 E0.03083
G1 X-6.464 Y12.221 E0.09616
G1 X-5.84 Y12.218 E0.03098
G1 X-7.834 Y14.212 E0.13998
G1 X-7.834 Y14.833 E0.03083
G1 X-5.215 Y12.215 E0.18379
G1 X-4.591 Y12.211 E0.03099
G1 X-7.834 Y15.454 E0.22761
G1 X-7.834 Y16.075 E0.03082
G1 X-3.967 Y12.208 E0.27144
G1 X-3.343 Y12.205 E0.03098
G1 X-7.834 Y16.696 E0.31525
G1 X-7.834 Y17.317 E0.03082
G1 X-2.718 Y12.202 E0.35907
G1 X-2.094 Y12.198 E0.03098
G1 X-8.002 Y18.106 E0.41465
M106 S255
M204 P1000 T1000
G1 X-7.373 Y18.098 F9000
M106 S255
G1 F2700
G1 X-1.47 Y12.195 E0.41436
G1 X-0.846 Y12.192 E0.03098
G1 X-5.904 Y17.25 E0.35505
M106 S255
; acceleration to travel
M204 P1000 T1500
G1 X-5.022 Y16.741 F9000
; decel to extrusion
M204 P1000 T1000
G1 X-4.434 Y16.402
; end travel
M106 S255
G1 F2700
M204 P1000 T1500
G1 X-0.221 Y12.188 E0.29572
G1 X0.139 Y12.187 E0.01786
G1 X0.195 Y12.394 E0.01064
G1 X-2.965 Y15.553 E0.22179
M106 S255
; acceleration to travel
G1 X-2.084 Y15.044 F9000
; decel to extrusion
M204 P1000 T1000
G1 X-1.496 Y14.705
; end travel
M106 S255
G1 F2700
M204 P1000 T1500
G1 X0.327 Y12.882 E0.12794
G1 X0.459 Y13.371 E0.02513
G1 X-0.027 Y13.857 E0.03409
M106 S255
M204 P1000 T1000
G1 X0.65 Y13.284 F9000
;TYPE:Solid infill
;WIDTH:0.446474
;HEIGHT:0.2
M106 S255
G1 F3600
G1 X1.748 Y12.187 E0.05211
G1 X1.169 Y12.19 E0.01943
G1 X0.671 Y12.688 E0.02367
G1 X0.548 Y12.235 E0.01576
G1 X0.766 Y12.017 E0.01037
M106 S255
; acceleration to travel
M204 P1000 T1500
G1 X1.149 Y12.569 F9000
; decel to extrusion
M204 P1000 T1000
G1 X1.379 Y12.902
; end travel
;TYPE:Gap fill
;WIDTH:0.134855
M106 S255
G1 F2400
M204 P1000 T1500
G1 X1.515 Y12.798 E0.00131
M106 S255
;WIDTH:0.175069
M106 S255
G1 X1.613 Y12.723 E0.00136
M106 S255
;WIDTH:0.212306
M106 S255
G1 X1.71 Y12.648 E0.00174
M106 S255
;WIDTH:0.249542
M106 S255
G1 X1.808 Y12.573 E0.00212
M106 S255
;WIDTH:0.286778
M106 S255
G1 X1.906 Y12.498 E0.0025
M106 S255
;WIDTH:0.324015
M106 S255
G1 X2.004 Y12.423 E0.00289
M106 S255
;WIDTH:0.361251
M106 S255
G1 X2.102 Y12.348 E0.00326
