; generated by SuperSlicer 2.5.59.13 on 2025-11-14 at 21:36:04 UTC

; 

; external perimeters extrusion width = 0.30mm
; perimeters extrusion width = 0.30mm
; infill extrusion width = 0.30mm
; solid infill extrusion width = 0.30mm
; top infill extrusion width = 0.30mm


M106 S255
M140 S50 ; set bed temperature
G10 P0 R210 ; sets the standby temperature
G10 P0 S210 ; set temperature
;TYPE:Custom
G1 E1 F1800
G21 ; set units to millimeters
G90 ; use absolute coordinates
M83 ; use relative distances for extrusion
; FILAMENT_START_GCODE
G10 P0 S210 ; set temperature
M116 ; wait for temperature to be reached
M190 S50 ; set bed temperature and wait for it to be reached
;LAYER_CHANGE
;Z:45.6
;HEIGHT:45.599998
; BEFORE_LAYER_CHANGE
;45.6
G92 E0

G1 E-1.000000 F2100
G1 Z0.2 F9000
G1 Z45.6
; AFTER_LAYER_CHANGE
;45.6
G1 Z45.8
M204 P1000 T1000
G1 X4.418 Y10.935
G1 Z45.6
G1 E1.000000 F2100
;TYPE:Solid infill
;WIDTH:0.28802
;HEIGHT:0.2
M106 S255
G1 F1200
G1 X4.309 Y10.827 E0.00316
G1 X4.116 Y10.847 E0.00399
G1 X4.003 Y10.884 E0.00244
G1 X4.152 Y11.033 E0.00435
G1 X3.922 Y11.166 E0.00546
G1 X3.727 Y10.972 E0.00565
G1 X3.452 Y11.06 E0.00593
G1 X3.691 Y11.3 E0.00695
G1 X3.461 Y11.433 E0.00546
G1 X3.177 Y11.148 E0.00825
G1 X2.901 Y11.237 E0.00593
G1 X3.231 Y11.566 E0.00955
G1 X3 Y11.699 E0.00547
G1 X2.602 Y11.301 E0.01154
G1 X2.298 Y11.361 E0.00636
G1 X2.77 Y11.832 E0.01367
G1 X2.539 Y11.965 E0.00546
G1 X1.995 Y11.421 E0.0158
G1 X1.691 Y11.481 E0.00635
G1 X2.309 Y12.098 E0.01792
G1 X2.078 Y12.231 E0.00546
G1 X1.362 Y11.515 E0.02078
G1 X1.026 Y11.543 E0.00692
G1 X1.848 Y12.364 E0.02384
G1 X1.617 Y12.497 E0.00547
G1 X0.69 Y11.57 E0.0269
G1 X0.354 Y11.598 E0.00692
G1 X1.387 Y12.63 E0.02997
G1 X1.156 Y12.763 E0.00546
G1 X-0.011 Y11.596 E0.03388
G1 X-0.386 Y11.584 E0.0077
G1 X0.926 Y12.896 E0.03808
G1 X0.695 Y13.029 E0.00546
G1 X-0.762 Y11.573 E0.04228
G1 X-0.986 Y11.566 E0.00462
G1 X-1.156 Y11.542 E0.00351
G1 X0.465 Y13.163 E0.04703
G1 X0.234 Y13.296 E0.00547
G1 X-1.579 Y11.483 E0.05261
G1 X-2.001 Y11.424 E0.00876
G1 X0.004 Y13.429 E0.0582
G1 X-0.227 Y13.562 E0.00546
G1 X-2.454 Y11.335 E0.06462
G1 X-2.94 Y11.212 E0.0103
G1 X-0.457 Y13.695 E0.07206
G1 X-0.688 Y13.828 E0.00546
G1 X-3.426 Y11.089 E0.07948
G1 X-3.447 Y11.084 E0.00045
G1 X-3.997 Y10.883 E0.012
G1 X-0.918 Y13.961 E0.08935
G1 X-1.149 Y14.094 E0.00546
G1 X-4.58 Y10.663 E0.09957
G1 X-5.292 Y10.314 E0.01628
G1 X-1.379 Y14.227 E0.11357
G1 X-1.61 Y14.36 E0.00546
G1 X-6.493 Y9.477 E0.14171
M106 S255
G1 E-0.9 F2100
;WIPE_START
G1 F7200
G1 X-6.25 Y9.72 E-0.095
;WIPE_END
G1 E-0.005 F2100
G1 Z45.8 F9000
; acceleration to travel
M204 P1000 T1500
G1 X-9.824 Y5.27
; decel to extrusion
M204 P1000 T1000
G1 X-10.697 Y4.183
; end travel
M204 P1000 T1500
G1 Z45.6
G1 E1.000000 F2100
M106 S255
G1 F1200
G1 X-10.891 Y3.988 E0.00564
G1 X-10.891 Y4.352 E0.00746
G1 X-10.664 Y4.579 E0.0066
G1 X-10.314 Y5.292 E0.0163
G1 X-10.891 Y4.715 E0.01675
G1 X-10.891 Y5.079 E0.00746
G1 X-9.477 Y6.493 E0.04105
M106 S255
; acceleration to travel
G1 X-10.392 Y5.796 F9000
; decel to extrusion
M204 P1000 T1000
G1 X-11.002 Y5.332
; end travel
M106 S255
G1 F1200
M204 P1000 T1500
G1 X-1.84 Y14.493 E0.26589
G1 X-2.071 Y14.626 E0.00546
G1 X-10.891 Y5.806 E0.256
G1 X-10.891 Y6.17 E0.00746
G1 X-2.301 Y14.759 E0.24931
G1 X-2.532 Y14.893 E0.00546
G1 X-10.891 Y6.533 E0.24262
G1 X-10.891 Y6.897 E0.00746
G1 X-2.762 Y15.026 E0.23593
G1 X-2.993 Y15.159 E0.00546
G1 X-10.891 Y7.26 E0.22923
G1 X-10.891 Y7.624 E0.00747
G1 X-3.223 Y15.292 E0.22254
G1 X-3.454 Y15.425 E0.00547
G1 X-10.891 Y7.987 E0.21585
G1 X-10.891 Y8.351 E0.00747
G1 X-3.684 Y15.558 E0.20916
G1 X-3.915 Y15.691 E0.00547
G1 X-10.891 Y8.715 E0.20248
G1 X-10.891 Y9.078 E0.00746
G1 X-4.145 Y15.824 E0.19579
G1 X-4.376 Y15.957 E0.00546
G1 X-10.891 Y9.442 E0.1891
G1 X-10.891 Y9.805 E0.00746
G1 X-4.606 Y16.09 E0.18241
G1 X-4.837 Y16.223 E0.00546
G1 X-10.891 Y10.169 E0.17572
G1 X-10.891 Y10.532 E0.00746
G1 X-5.067 Y16.356 E0.16904
G1 X-5.298 Y16.489 E0.00546
G1 X-10.891 Y10.896 E0.16234
G1 X-10.891 Y11.26 E0.00746
G1 X-5.528 Y16.622 E0.15565
G1 X-5.759 Y16.756 E0.00546
G1 X-10.891 Y11.623 E0.14897
G1 X-10.891 Y11.987 E0.00746
G1 X-5.989 Y16.889 E0.14227
G1 X-6.22 Y17.022 E0.00546
G1 X-10.891 Y12.35 E0.13559
G1 X-10.891 Y12.714 E0.00746
G1 X-6.45 Y17.155 E0.12889
G1 X-6.681 Y17.288 E0.00546
G1 X-10.891 Y13.077 E0.12221
G1 X-10.891 Y13.441 E0.00746
G1 X-6.911 Y17.421 E0.11551
G1 X-7.142 Y17.554 E0.00546
G1 X-10.891 Y13.804 E0.10883
G1 X-10.891 Y14.168 E0.00746
G1 X-7.372 Y17.687 E0.10213
G1 X-7.603 Y17.82 E0.00547
G1 X-10.891 Y14.532 E0.09544
G1 X-10.891 Y14.895 E0.00746
G1 X-7.844 Y17.942 E0.08845
G1 X-8.088 Y18.062 E0.00558
G1 X-10.891 Y15.259 E0.08134
G1 X-10.891 Y15.622 E0.00747
G1 X-8.352 Y18.161 E0.07368
G1 X-8.627 Y18.25 E0.00593
G1 X-10.891 Y15.986 E0.06572
G1 X-10.891 Y16.349 E0.00746
G1 X-8.928 Y18.312 E0.05696
G1 X-9.239 Y18.365 E0.00647
G1 X-10.891 Y16.713 E0.04794
G1 X-10.891 Y17.077 E0.00746
G1 X-9.598 Y18.37 E0.03755
G1 X-9.956 Y18.375 E0.00735
G1 X-10.891 Y17.44 E0.02714
G1 X-10.891 Y17.804 E0.00746
G1 X-10.315 Y18.38 E0.01674
G1 X-10.673 Y18.385 E0.00735
G1 X-11.002 Y18.057 E0.00954
M106 S255
G1 E-0.9 F2100
;WIPE_START
G1 F7200
G1 X-10.759 Y18.299 E-0.095
;WIPE_END
G1 E-0.005 F2100
G1 Z45.8 F9000
; acceleration to travel
G1 X19.169 Y-17.303
; decel to extrusion
M204 P1000 T1000
G1 X26.482 Y-26.002
; end travel
M204 P1000 T1500
G1 Z45.6
G1 E1.000000 F2100
;WIDTH:0.295742
M106 S255
G1 F1200
G1 X26.891 Y-25.593 E0.01219
G1 X26.891 Y-25.229 E0.00767
G1 X26.229 Y-25.891 E0.01973
G1 X25.865 Y-25.891 E0.00766
G1 X26.891 Y-24.865 E0.03057
G1 X26.891 Y-24.502 E0.00766
G1 X25.502 Y-25.891 E0.0414
G1 X25.138 Y-25.891 E0.00767
G1 X26.891 Y-24.138 E0.05223
G1 X26.891 Y-23.775 E0.00767
G1 X24.775 Y-25.891 E0.06307
G1 X24.411 Y-25.891 E0.00766
G1 X26.891 Y-23.411 E0.07391
G1 X26.891 Y-23.048 E0.00766
G1 X24.048 Y-25.891 E0.08474
G1 X23.684 Y-25.891 E0.00766
G1 X26.891 Y-22.684 E0.09558
G1 X26.891 Y-22.32 E0.00766
G1 X23.32 Y-25.891 E0.10642
G1 X22.957 Y-25.891 E0.00766
G1 X26.891 Y-21.957 E0.11724
G1 X26.891 Y-21.593 E0.00767
G1 X22.593 Y-25.891 E0.12808
G1 X22.23 Y-25.891 E0.00766
G1 X26.891 Y-21.23 E0.13892
G1 X26.891 Y-20.866 E0.00766
G1 X21.866 Y-25.891 E0.14975
G1 X21.503 Y-25.891 E0.00766
G1 X26.891 Y-20.503 E0.16059
G1 X26.891 Y-20.139 E0.00766
G1 X21.139 Y-25.891 E0.17142
G1 X20.775 Y-25.891 E0.00766
G1 X26.784 Y-19.882 E0.17907
G1 X26.554 Y-19.749 E0.00561
G1 X20.412 Y-25.891 E0.18304
G1 X20.048 Y-25.891 E0.00766
G1 X26.323 Y-19.616 E0.187
G1 X26.093 Y-19.483 E0.00561
G1 X19.685 Y-25.891 E0.19096
G1 X19.321 Y-25.891 E0.00767
G1 X25.862 Y-19.35 E0.19493
G1 X25.632 Y-19.217 E0.00561
G1 X18.958 Y-25.891 E0.1989
G1 X18.594 Y-25.891 E0.00766
G1 X25.401 Y-19.084 E0.20286
G1 X25.171 Y-18.951 E0.00561
G1 X18.231 Y-25.891 E0.20683
G1 X17.867 Y-25.891 E0.00766
G1 X24.94 Y-18.818 E0.2108
G1 X24.71 Y-18.685 E0.0056
G1 X17.503 Y-25.891 E0.21476
G1 X17.14 Y-25.891 E0.00767
G1 X24.479 Y-18.552 E0.21872
G1 X24.249 Y-18.419 E0.00561
G1 X16.776 Y-25.891 E0.22269
G1 X16.413 Y-25.891 E0.00766
G1 X24.018 Y-18.286 E0.22666
G1 X23.788 Y-18.153 E0.00561
G1 X16.049 Y-25.891 E0.23062
G1 X15.686 Y-25.891 E0.00766
G1 X23.557 Y-18.019 E0.23459
G1 X23.327 Y-17.886 E0.00561
G1 X15.322 Y-25.891 E0.23855
G1 X14.958 Y-25.891 E0.00767
G1 X23.096 Y-17.753 E0.24251
G1 X22.866 Y-17.62 E0.00561
G1 X14.595 Y-25.891 E0.24649
G1 X14.231 Y-25.891 E0.00766
G1 X22.635 Y-17.487 E0.25045
G1 X22.405 Y-17.354 E0.00561
G1 X13.868 Y-25.891 E0.25441
G1 X13.504 Y-25.891 E0.00766
G1 X22.174 Y-17.221 E0.25839
G1 X21.944 Y-17.088 E0.0056
G1 X13.141 Y-25.891 E0.26235
G1 X12.777 Y-25.891 E0.00766
G1 X21.713 Y-16.955 E0.26631
G1 X21.483 Y-16.822 E0.00561
G1 X12.413 Y-25.891 E0.27028
G1 X12.05 Y-25.891 E0.00766
G1 X21.252 Y-16.689 E0.27425
G1 X21.022 Y-16.556 E0.0056
G1 X11.686 Y-25.891 E0.27821
G1 X11.323 Y-25.891 E0.00766
G1 X20.791 Y-16.423 E0.28218
G1 X20.561 Y-16.29 E0.00561
G1 X10.959 Y-25.891 E0.28614
G1 X10.596 Y-25.891 E0.00766
G1 X20.33 Y-16.157 E0.2901
G1 X20.1 Y-16.023 E0.00561
G1 X10.232 Y-25.891 E0.29407
G1 X9.869 Y-25.891 E0.00766
G1 X19.869 Y-15.89 E0.29804
G1 X19.639 Y-15.757 E0.00561
G1 X9.505 Y-25.891 E0.302
G1 X9.141 Y-25.891 E0.00766
G1 X19.408 Y-15.624 E0.30597
G1 X19.178 Y-15.491 E0.00561
G1 X8.778 Y-25.891 E0.30993
G1 X8.414 Y-25.891 E0.00766
G1 X18.947 Y-15.358 E0.3139
G1 X18.717 Y-15.225 E0.00561
G1 X8.051 Y-25.891 E0.31786
G1 X7.687 Y-25.891 E0.00766
G1 X18.486 Y-15.092 E0.32183
G1 X18.256 Y-14.959 E0.00561
G1 X7.324 Y-25.891 E0.3258
G1 X6.96 Y-25.891 E0.00766
G1 X18.025 Y-14.826 E0.32976
G1 X17.795 Y-14.693 E0.00561
G1 X6.596 Y-25.891 E0.33372
G1 X6.233 Y-25.891 E0.00767
G1 X17.564 Y-14.56 E0.33769
G1 X17.334 Y-14.427 E0.00561
G1 X5.869 Y-25.891 E0.34165
G1 X5.506 Y-25.891 E0.00766
G1 X17.103 Y-14.294 E0.34563
G1 X16.873 Y-14.161 E0.0056
G1 X5.142 Y-25.891 E0.34959
G1 X4.779 Y-25.891 E0.00766
G1 X16.642 Y-14.028 E0.35356
G1 X16.412 Y-13.894 E0.00561
G1 X4.415 Y-25.891 E0.35751
G1 X4.052 Y-25.891 E0.00767
G1 X16.181 Y-13.761 E0.36148
G1 X15.951 Y-13.628 E0.00561
G1 X3.688 Y-25.891 E0.36545
G1 X3.324 Y-25.891 E0.00766
G1 X15.72 Y-13.495 E0.36942
G1 X15.49 Y-13.362 E0.0056
G1 X2.961 Y-25.891 E0.37339
G1 X2.597 Y-25.891 E0.00766
G1 X15.259 Y-13.229 E0.37734
G1 X15.029 Y-13.096 E0.00561
G1 X2.234 Y-25.891 E0.38131
G1 X1.87 Y-25.891 E0.00767
G1 X14.798 Y-12.963 E0.38527
G1 X14.568 Y-12.83 E0.00561
G1 X1.507 Y-25.891 E0.38925
G1 X1.143 Y-25.891 E0.00766
G1 X14.337 Y-12.697 E0.39321
G1 X14.107 Y-12.564 E0.0056
G1 X0.779 Y-25.891 E0.39718
G1 X0.416 Y-25.891 E0.00766
G1 X13.876 Y-12.431 E0.40114
G1 X13.646 Y-12.298 E0.00561
G1 X0.052 Y-25.891 E0.4051
G1 X-0.311 Y-25.891 E0.00766
G1 X13.415 Y-12.165 E0.40907
G1 X13.185 Y-12.032 E0.00561
G1 X-0.675 Y-25.891 E0.41304
G1 X-1.038 Y-25.891 E0.00766
G1 X12.954 Y-11.898 E0.417
G1 X12.724 Y-11.765 E0.00561
G1 X-1.402 Y-25.891 E0.42097
G1 X-1.766 Y-25.891 E0.00766
G1 X12.493 Y-11.632 E0.42493
G1 X12.263 Y-11.499 E0.00561
G1 X-2.129 Y-25.891 E0.4289
G1 X-2.493 Y-25.891 E0.00766
G1 X12.032 Y-11.366 E0.43286
G1 X11.802 Y-11.233 E0.00561
G1 X-2.856 Y-25.891 E0.43683
G1 X-3.22 Y-25.891 E0.00766
G1 X11.571 Y-11.1 E0.4408
G1 X11.341 Y-10.967 E0.00561
G1 X-3.583 Y-25.891 E0.44476
G1 X-3.947 Y-25.891 E0.00766
G1 X11.11 Y-10.834 E0.44872
G1 X10.88 Y-10.701 E0.00561
G1 X-4.31 Y-25.891 E0.45269
G1 X-4.674 Y-25.891 E0.00767
G1 X10.649 Y-10.568 E0.45665
G1 X10.419 Y-10.435 E0.00561
G1 X-5.038 Y-25.891 E0.46062
G1 X-5.401 Y-25.891 E0.00766
G1 X10.188 Y-10.302 E0.46459
G1 X9.958 Y-10.169 E0.00561
G1 X-5.765 Y-25.891 E0.46855
G1 X-6.128 Y-25.891 E0.00767
G1 X9.727 Y-10.036 E0.47251
G1 X9.497 Y-9.903 E0.00561
G1 X-6.492 Y-25.891 E0.47649
G1 X-6.855 Y-25.891 E0.00766
G1 X9.266 Y-9.769 E0.48045
G1 X9.036 Y-9.636 E0.00561
G1 X-7.219 Y-25.891 E0.48441
G1 X-7.583 Y-25.891 E0.00766
G1 X8.805 Y-9.503 E0.48838
G1 X8.575 Y-9.37 E0.00561
G1 X-7.946 Y-25.891 E0.49235
G1 X-8.31 Y-25.891 E0.00766
G1 X8.344 Y-9.237 E0.49631
G1 X8.114 Y-9.104 E0.00561
G1 X-8.673 Y-25.891 E0.50028
G1 X-9.037 Y-25.891 E0.00766
G1 X7.883 Y-8.971 E0.50424
G1 X7.653 Y-8.838 E0.00561
G1 X-9.4 Y-25.891 E0.50821
G1 X-9.764 Y-25.891 E0.00766
G1 X6.562 Y-9.565 E0.48655
G1 X6.291 Y-9.756 E0.00698
G1 X5.604 Y-10.16 E0.01681
G1 X-10.128 Y-25.891 E0.46881
G1 X-10.491 Y-25.891 E0.00766
G1 X4.867 Y-10.533 E0.45769
G1 X4.823 Y-10.555 E0.00102
G1 X4.235 Y-10.801 E0.01344
G1 X-10.855 Y-25.891 E0.44969
G1 X-10.891 Y-25.891 E0.00077
G1 X-10.891 Y-25.564 E0.0069
G1 X3.67 Y-11.003 E0.43395
G1 X3.224 Y-11.148 E0.00989
G1 X3.14 Y-11.169 E0.00183
G1 X-10.891 Y-25.2 E0.41815
G1 X-10.891 Y-24.837 E0.00766
G1 X2.654 Y-11.292 E0.40367
G1 X2.442 Y-11.345 E0.0046
G1 X2.192 Y-11.391 E0.00537
G1 X-10.891 Y-24.473 E0.38989
G1 X-10.891 Y-24.11 E0.00766
G1 X1.747 Y-11.472 E0.37664
G1 X1.625 Y-11.494 E0.00261
G1 X1.333 Y-11.522 E0.00618
G1 X-10.891 Y-23.746 E0.3643
G1 X-10.891 Y-23.383 E0.00766
G1 X0.93 Y-11.561 E0.3523
G1 X0.687 Y-11.585 E0.00514
G1 X0.539 Y-11.589 E0.00312
G1 X-10.891 Y-23.019 E0.34065
G1 X-10.891 Y-22.656 E0.00766
G1 X0.166 Y-11.598 E0.32952
G1 X-0.08 Y-11.605 E0.00518
G1 X-0.199 Y-11.6 E0.00252
G1 X-10.891 Y-22.292 E0.31863
G1 X-10.891 Y-21.928 E0.00766
G1 X-0.548 Y-11.586 E0.30823
G1 X-0.897 Y-11.571 E0.00737
G1 X-10.891 Y-21.565 E0.29783
G1 X-10.891 Y-21.201 E0.00766
G1 X-1.225 Y-11.536 E0.28805
G1 X-1.549 Y-11.496 E0.00687
G1 X-10.891 Y-20.838 E0.27841
G1 X-10.891 Y-20.474 E0.00766
G1 X-1.869 Y-11.452 E0.26888
G1 X-2.173 Y-11.393 E0.00653
G1 X-10.891 Y-20.111 E0.25981
G1 X-10.891 Y-19.747 E0.00766
G1 X-2.478 Y-11.333 E0.25074
G1 X-2.608 Y-11.308 E0.0028
G1 X-2.772 Y-11.265 E0.00358
G1 X-10.891 Y-19.383 E0.24196
G1 X-10.891 Y-19.02 E0.00766
G1 X-3.06 Y-11.188 E0.23339
G1 X-3.347 Y-11.112 E0.00627
G1 X-10.891 Y-18.656 E0.22482
G1 X-10.891 Y-18.293 E0.00766
G1 X-3.62 Y-11.022 E0.21668
G1 X-3.889 Y-10.927 E0.00601
G1 X-10.891 Y-17.929 E0.20867
G1 X-10.891 Y-17.566 E0.00766
G1 X-4.157 Y-10.832 E0.20068
G1 X-4.242 Y-10.802 E0.00189
G1 X-4.412 Y-10.722 E0.00394
G1 X-10.891 Y-17.202 E0.19311
G1 X-10.891 Y-16.838 E0.00766
G1 X-4.659 Y-10.606 E0.18573
G1 X-4.906 Y-10.49 E0.00576
G1 X-10.891 Y-16.475 E0.17835
G1 X-10.891 Y-16.111 E0.00766
G1 X-5.154 Y-10.374 E0.17098
G1 X-5.401 Y-10.258 E0.00576
G1 X-10.891 Y-15.748 E0.16361
G1 X-10.891 Y-15.384 E0.00766
G1 X-5.648 Y-10.141 E0.15625
G1 X-5.874 Y-10.003 E0.00557
G1 X-10.891 Y-15.021 E0.14953
G1 X-10.891 Y-14.657 E0.00767
G1 X-6.099 Y-9.865 E0.14281
G1 X-6.324 Y-9.727 E0.00557
G1 X-10.891 Y-14.294 E0.13609
G1 X-10.891 Y-13.93 E0.00766
G1 X-6.541 Y-9.58 E0.12964
G1 X-6.753 Y-9.428 E0.00549
G1 X-10.891 Y-13.566 E0.12334
G1 X-10.891 Y-13.203 E0.00766
G1 X-6.964 Y-9.276 E0.11702
G1 X-7.113 Y-9.17 E0.00385
G1 X-7.172 Y-9.12 E0.00163
G1 X-10.891 Y-12.839 E0.11082
G1 X-10.891 Y-12.476 E0.00767
G1 X-7.371 Y-8.956 E0.10489
G1 X-7.57 Y-8.792 E0.00544
G1 X-10.891 Y-12.112 E0.09896
G1 X-10.891 Y-11.749 E0.00766
G1 X-7.768 Y-8.625 E0.09309
G1 X-7.954 Y-8.448 E0.00542
G1 X-10.891 Y-11.385 E0.08753
G1 X-10.891 Y-11.021 E0.00766
G1 X-8.14 Y-8.27 E0.08199
G1 X-8.247 Y-8.169 E0.0031
G1 X-8.32 Y-8.087 E0.00232
G1 X-10.891 Y-10.658 E0.07663
G1 X-10.891 Y-10.294 E0.00766
G1 X-8.491 Y-7.894 E0.07153
G1 X-8.662 Y-7.702 E0.00542
G1 X-10.891 Y-9.931 E0.06644
G1 X-10.891 Y-9.567 E0.00766
G1 X-8.833 Y-7.509 E0.06133
G1 X-9.004 Y-7.317 E0.00543
G1 X-10.891 Y-9.204 E0.05623
G1 X-10.891 Y-8.84 E0.00766
G1 X-9.165 Y-7.114 E0.05145
G1 X-9.317 Y-6.902 E0.00549
G1 X-10.891 Y-8.477 E0.04692
G1 X-10.891 Y-8.113 E0.00766
G1 X-9.469 Y-6.69 E0.0424
G1 X-9.621 Y-6.479 E0.00549
G1 X-10.891 Y-7.749 E0.03786
G1 X-10.891 Y-7.386 E0.00766
G1 X-9.77 Y-6.265 E0.03342
G1 X-9.901 Y-6.032 E0.00562
G1 X-10.891 Y-7.022 E0.0295
G1 X-10.891 Y-6.659 E0.00766
G1 X-10.032 Y-5.8 E0.02559
G1 X-10.164 Y-5.568 E0.00563
G1 X-10.891 Y-6.295 E0.02167
G1 X-10.891 Y-5.932 E0.00766
G1 X-10.295 Y-5.335 E0.01777
G1 X-10.426 Y-5.103 E0.00563
G1 X-10.891 Y-5.568 E0.01387
G1 X-10.891 Y-5.204 E0.00766
G1 X-10.535 Y-4.848 E0.01061
G1 X-10.644 Y-4.594 E0.00583
G1 X-10.891 Y-4.841 E0.00736
G1 X-10.891 Y-4.477 E0.00766
G1 X-10.754 Y-4.34 E0.00409
G1 X-10.863 Y-4.086 E0.00583
G1 X-11.002 Y-4.224 E0.00413
M106 S255
G1 E-0.9 F2100
;WIPE_START
G1 F7200
G1 X-10.863 Y-4.086 E-0.0543
G1 X-10.805 Y-4.221 E-0.0407
;WIPE_END
G1 E-0.005 F2100
G1 Z45.8 F9000
; acceleration to travel
G1 X-11.025 Y1.351
; decel to extrusion
M204 P1000 T1000
G1 X-11.079 Y2.712
; end travel
M204 P1000 T1500
G1 Z45.6
G1 E1.000000 F2100
;TYPE:Internal perimeter
;WIDTH:0.299999
M106 S255
G1 F1200
G1 X-11.079 Y18.579 E0.33917
G1 X-9.661 Y18.579 E0.0303
G1 X-9.12 Y18.536 E0.0116
G1 X-8.513 Y18.41 E0.01326
G1 X-7.968 Y18.212 E0.01239
G1 X-7.494 Y17.974 E0.01133
G1 X4.306 Y11.162 E0.29126
G1 X4.358 Y11.119 E0.00144
M106 S255
;WIDTH:0.324661
M106 S255
G1 X4.411 Y11.077 E0.00158
M106 S255
;WIDTH:0.349322
M106 S255
G1 X4.463 Y11.035 E0.00171
M106 S255
;WIDTH:0.373983
M106 S255
G1 X4.516 Y10.993 E0.00186
M106 S255
;WIDTH:0.398644
M106 S255
G1 X4.568 Y10.951 E0.00199
M106 S255
;WIDTH:0.423305
