; generated by SuperSlicer 2.5.59.13 on 2025-11-14 at 21:35:41 UTC

; 

; external perimeters extrusion width = 0.30mm
; perimeters extrusion width = 0.30mm
; infill extrusion width = 0.30mm
; solid infill extrusion width = 0.30mm
; top infill extrusion width = 0.30mm


M106 S255
M140 S50 ; set bed temperature
G10 P0 R210 ; sets the standby temperature
G10 P0 S210 ; set temperature
;TYPE:Custom
G1 E1 F1800
G21 ; set units to millimeters
G90 ; use absolute coordinates
M83 ; use relative distances for extrusion
; FILAMENT_START_GCODE
G10 P0 S210 ; set temperature
M116 ; wait for temperature to be reached
M190 S50 ; set bed temperature and wait for it to be reached
;LAYER_CHANGE
;Z:37.4
;HEIGHT:37.400002
; BEFORE_LAYER_CHANGE
;37.4
G92 E0

G1 E-1.000000 F2100
G1 Z0.2 F9000
G1 Z37.4
; AFTER_LAYER_CHANGE
;37.4
G1 Z37.6
M204 P1000 T1000
G1 X-10.6 Y-25.484
G1 Z37.4
G1 E1.000000 F2100
;TYPE:External perimeter
;WIDTH:0.62382
;HEIGHT:0.2
M106 S255
G1 F600
G1 X-10.559 Y-25.511 E0.00233
M106 S255
;WIDTH:0.599063
M106 S255
G1 X-10.519 Y-25.537 E0.00224
M106 S255
;WIDTH:0.574306
M106 S255
G1 X-10.479 Y-25.564 E0.00213
M106 S255
;WIDTH:0.549548
M106 S255
G1 X-10.439 Y-25.591 E0.00203
M106 S255
;LAYER_CHANGE
;Z:37.6
;HEIGHT:0.199997
; BEFORE_LAYER_CHANGE
;37.6
G92 E0

G1 E-0.9 F2100
;WIPE_START
G1 F7200
G1 X-10.479 Y-25.564 E-0.01338
G1 X-10.519 Y-25.537 E-0.01338
G1 X-10.559 Y-25.511 E-0.01338
G1 X-10.6 Y-25.484 E-0.01338
;WIPE_END
G1 E-0.04648 F2100
G1 Z37.6 F9000
; AFTER_LAYER_CHANGE
;37.6
G1 X-10.458 Y-25.39
G1 E1.000000 F2100
;TYPE:Internal perimeter
;WIDTH:0.328749
M106 S255
G1 F600
G1 X-10.165 Y-25.677 E0.00976
G1 X-10.677 Y-25.677 E0.01217
G1 X-10.677 Y-25.175 E0.01193
G1 X-10.501 Y-25.348 E0.00587
M106 S255
G1 X-10.264 Y-25.216 F9000
;WIDTH:0.299999
M106 S255
G1 F600
G1 X-9.793 Y-25.649 E0.01367
G1 X-9.509 Y-25.948 E0.00883
G1 X-10.774 Y-25.948 E0.02703
G1 X-10.948 Y-25.922 E0.00378
G1 X-10.948 Y-24.5 E0.03041
G1 X-10.934 Y-24.446 E0.00118
G1 X-10.307 Y-25.174 E0.02054
M106 S255
G1 X-10.091 Y-25.028 F9000
M106 S255
G1 F600
G1 X-9.62 Y-25.458 E0.01365
G1 X-9.187 Y-25.915 E0.01344
G1 X-9.005 Y-26.023 E0.00453
G1 X-8.956 Y-26.029 E0.00105
G1 X-8.966 Y-26.138 E0.00234
G1 X-9.909 Y-26.206 E0.0202
G1 X-10.793 Y-26.206 E0.0189
G1 X-11.206 Y-26.143 E0.00892
G1 X-11.206 Y-24.431 E0.03661
G1 X-11.132 Y-24.202 E0.00515
G1 X-11.12 Y-23.87 E0.00709
G1 X-11.071 Y-23.811 E0.00163
G1 X-10.694 Y-24.339 E0.01386
G1 X-10.132 Y-24.984 E0.0183
M106 S255
G1 X-9.918 Y-24.839 F9000
;TYPE:External perimeter
M106 S255
G1 F600
G1 X-9.447 Y-25.268 E0.01363
G1 X-9.101 Y-25.632 E0.01073
G1 X-8.939 Y-25.774 E0.0046
G1 X-8.754 Y-25.81 E0.00404
G1 X-8.682 Y-25.864 E0.00191
G1 X-8.718 Y-26.245 E0.00817
G1 X-8.772 Y-26.395 E0.00341
G1 X-9.207 Y-26.418 E0.00932
G1 X-9.459 Y-26.463 E0.00546
G1 X-10.812 Y-26.463 E0.02893
G1 X-11.463 Y-26.365 E0.01406
G1 X-11.463 Y-24.36 E0.04285
G1 X-11.389 Y-24.202 E0.00373
G1 X-11.389 Y-23.793 E0.00874
G1 X-11.197 Y-23.519 E0.00716
G1 X-11.157 Y-23.193 E0.00701
G1 X-10.797 Y-23.764 E0.01442
G1 X-10.487 Y-24.187 E0.0112
G1 X-9.957 Y-24.793 E0.01722
M106 S255
;WIPE_START
G1 X-9.705 Y-24.762 F9000
;WIPE_END
;LAYER_CHANGE
;Z:37.8
;HEIGHT:0.200001
; BEFORE_LAYER_CHANGE
;37.8
G92 E0

G1 E-0.9 F2100
;WIPE_START
G1 F7200
G1 X-9.452 Y-24.993 E-0.095
;WIPE_END
G1 E-0.005 F2100
G1 Z37.8 F9000
; AFTER_LAYER_CHANGE
;37.8
G1 Z38.000000
; acceleration to travel
M204 P1000 T1500
G1 X-9.925 Y0.191
; decel to extrusion
M204 P1000 T1000
G1 X-10.044 Y6.487
; end travel
M204 P1000 T1500
G1 Z37.8
G1 E1.000000 F2100
;WIDTH:0.38292
M106 S255
G1 F1800
G1 X-9.759 Y6.991 E0.01637
G1 X-9.729 Y7.037 E0.00156
M106 S255
G1 E-0.9 F2100
;WIPE_START
G1 F7200
G1 X-9.759 Y6.991 E-0.01527
G1 X-9.901 Y6.74 E-0.07973
;WIPE_END
G1 E-0.005 F2100
G1 Z38.000000 F9000
; acceleration to travel
G1 X-10.868 Y4.909
; decel to extrusion
M204 P1000 T1000
G1 X-11.11 Y4.451
; end travel
M204 P1000 T1500
G1 Z37.8
G1 E1.000000 F2100
M106 S255
G1 F1800
G1 X-11.132 Y4.488 E0.0012
G1 X-11.195 Y4.451 E0.00208
G1 X-11.132 Y4.414 E0.00208
M106 S255
G1 E-0.9 F2100
;WIPE_START
G1 F7200
G1 X-11.11 Y4.451 E-0.01178
G1 X-11.132 Y4.488 E-0.01177
G1 X-11.195 Y4.451 E-0.0204
G1 X-11.132 Y4.414 E-0.0204
;WIPE_END
G1 E-0.03565 F2100
G1 Z38.000000 F9000
; acceleration to travel
G1 X-11.769 Y1.949
; decel to extrusion
M204 P1000 T1000
G1 X-11.928 Y1.332
; end travel
M204 P1000 T1500
G1 Z37.8
G1 E1.000000 F2100
M106 S255
G1 F1800
G1 X-11.901 Y0.941 E0.01111
G1 X-11.924 Y0.42 E0.01473
G1 X-11.917 Y-0.214 E0.01793
G1 X-11.919 Y-14.811 E0.41266
M106 S255
G1 E-0.9 F2100
;WIPE_START
G1 F7200
G1 X-11.919 Y-14.468 E-0.095
;WIPE_END
G1 E-0.005 F2100
G1 Z38.000000 F9000
; acceleration to travel
G1 X-10.87 Y-22.166
; decel to extrusion
M204 P1000 T1000
G1 X-10.57 Y-24.366
; end travel
M204 P1000 T1500
G1 Z37.8
G1 E1.000000 F2100
;TYPE:Internal infill
;WIDTH:0.3
M106 S255
G1 F3600
G1 X-10.886 Y-24.682 E0.00956
M106 S255
; acceleration to travel
G1 X-11.008 Y-25.567 F9000
; decel to extrusion
M204 P1000 T1000
G1 X-11.079 Y-26.079
; end travel
;TYPE:Internal perimeter
;WIDTH:0.299999
M106 S255
G1 F1558.5245
M204 P1000 T1500
G1 X-11.079 Y-23.363 E0.05806
G1 X-10.718 Y-23.891 E0.01368
G1 X-10.661 Y-23.965 E0.00199
G1 X-9.95 Y-24.795 E0.02336
G1 X-9.334 Y-25.368 E0.01799
G1 X-8.84 Y-25.753 E0.01339
G1 X-8.34 Y-26.079 E0.01276
G1 X-11.019 Y-26.079 E0.05727
M106 S255
M204 P1000 T1000
G1 X-11.336 Y-26.336 F9000
M106 S255
G1 F2034.3715
G1 X-11.336 Y-22.325 E0.08574
G1 X-10.869 Y-23.213 E0.02144
G1 X-10.507 Y-23.745 E0.01376
G1 X-10.466 Y-23.798 E0.00142
G1 X-9.755 Y-24.627 E0.02336
G1 X-9.16 Y-25.178 E0.01733
G1 X-8.683 Y-25.549 E0.01292
G1 X-7.954 Y-26.021 E0.01856
G1 X-7.339 Y-26.336 E0.01477
G1 X-11.276 Y-26.336 E0.08414
M106 S255
G1 X-11.593 Y-26.593 F9000
M106 S255
G1 F2559.4768
G1 X-11.593 Y-21.137 E0.11662
G1 X-11.523 Y-21.232 E0.00251
G1 X-11.257 Y-21.91 E0.01557
G1 X-10.998 Y-22.422 E0.01227
G1 X-10.642 Y-23.093 E0.01622
G1 X-10.295 Y-23.599 E0.01312
G1 X-10.271 Y-23.63 E0.00085
G1 X-9.56 Y-24.46 E0.02336
G1 X-8.987 Y-24.989 E0.01667
G1 X-8.526 Y-25.345 E0.01245
G1 X-7.815 Y-25.805 E0.0181
G1 X-6.939 Y-26.25 E0.02102
G1 X-6.477 Y-26.45 E0.01074
G1 X-6.249 Y-26.593 E0.00576
G1 X-11.533 Y-26.593 E0.11295
M106 S255
G1 E-0.9 F2100
;WIPE_START
G1 F7200
G1 X-11.19 Y-26.593 E-0.095
;WIPE_END
G1 E-0.005 F2100
G1 Z38.000000 F9000
; acceleration to travel
M204 P1000 T1500
G1 X-6.645 Y-26.751
; decel to extrusion
M204 P1000 T1000
G1 X-5.508 Y-26.79
; end travel
M204 P1000 T1500
G1 Z37.8
G1 E1.000000 F2100
;TYPE:External perimeter
;WIDTH:0.420082
M106 S255
G1 F1800
G1 X-5.124 Y-26.82 E0.01207
M106 S255
;WIDTH:0.38292
M106 S255
G1 X-4.741 Y-26.85 E0.01089
G1 X-4.71 Y-26.853 E0.00086
G1 X-3.65 Y-26.901 E0.03001
G1 X-3.049 Y-26.905 E0.01698
G1 X-2.528 Y-26.913 E0.01473
G1 X-1.697 Y-26.916 E0.0235
M106 S255
G1 E-0.9 F2100
;WIPE_START
G1 F7200
G1 X-2.04 Y-26.915 E-0.095
;WIPE_END
G1 E-0.005 F2100
G1 Z38.000000 F9000
; acceleration to travel
G1 X-9.888 Y-26.863
; decel to extrusion
M204 P1000 T1000
G1 X-11.85 Y-26.85
; end travel
M204 P1000 T1500
G1 Z37.8
G1 E1.000000 F2100
;WIDTH:0.299999
M106 S255
G1 F1800
G1 X-11.85 Y-21.245 E0.11981
G1 X-11.84 Y-21.086 E0.00341
M106 S255
;WIDTH:0.326251
M106 S255
G1 X-11.83 Y-20.926 E0.00377
M106 S255
;WIDTH:0.352503
M106 S255
G1 X-11.82 Y-20.767 E0.0041
M106 S255
;WIDTH:0.378754
M106 S255
G1 X-11.811 Y-20.608 E0.00446
G1 X-11.802 Y-20.546 E0.00175
M106 S255
;WIDTH:0.414794
M106 S255
G1 X-11.793 Y-20.484 E0.00193
G1 X-11.699 Y-20.601 E0.00463
M106 S255
;WIDTH:0.386096
M106 S255
G1 X-11.605 Y-20.717 E0.00428
M106 S255
;WIDTH:0.357397
M106 S255
G1 X-11.511 Y-20.834 E0.00391
M106 S255
;WIDTH:0.328698
M106 S255
G1 X-11.417 Y-20.951 E0.00356
M106 S255
;WIDTH:0.299999
M106 S255
G1 X-11.323 Y-21.067 E0.0032
G1 X-11.017 Y-21.816 E0.01728
G1 X-10.769 Y-22.306 E0.01175
G1 X-10.415 Y-22.972 E0.01612
G1 X-10.076 Y-23.463 E0.01276
G1 X-9.365 Y-24.293 E0.02336
G1 X-8.813 Y-24.799 E0.01601
G1 X-8.369 Y-25.142 E0.01198
G1 X-7.676 Y-25.589 E0.01764
G1 X-6.823 Y-26.021 E0.02044
G1 X-6.33 Y-26.221 E0.01137
G1 X-6.224 Y-26.327 E0.0032
G1 X-5.947 Y-26.44 E0.0064
G1 X-5.874 Y-26.499 E0.002
M106 S255
;WIDTH:0.324016
M106 S255
G1 X-5.801 Y-26.557 E0.00219
M106 S255
;WIDTH:0.348033
M106 S255
G1 X-5.728 Y-26.615 E0.00237
M106 S255
;WIDTH:0.372049
M106 S255
G1 X-5.655 Y-26.673 E0.00256
M106 S255
;WIDTH:0.396066
M106 S255
G1 X-5.581 Y-26.732 E0.00275
M106 S255
;WIDTH:0.420082
M106 S255
G1 X-5.508 Y-26.79 E0.00293
M106 S255
M106 S255
G1 X-5.602 Y-26.8 E0.00297
M106 S255
;WIDTH:0.396066
M106 S255
G1 X-5.696 Y-26.81 E0.00277
M106 S255
;WIDTH:0.372049
M106 S255
G1 X-5.791 Y-26.82 E0.00259
M106 S255
;WIDTH:0.348033
M106 S255
G1 X-5.885 Y-26.83 E0.0024
M106 S255
;WIDTH:0.324016
M106 S255
G1 X-5.979 Y-26.84 E0.00222
M106 S255
;WIDTH:0.299999
M106 S255
G1 X-6.073 Y-26.85 E0.00202
G1 X-11.79 Y-26.85 E0.12221
M106 S255
;WIPE_START
G1 X-11.65 Y-26.504 F9000
;WIPE_END
G1 E-0.9 F2100
;WIPE_START
G1 F7200
G1 X-11.853 Y-26.78 E-0.095
;WIPE_END
G1 E-0.005 F2100
G1 Z38.000000 F9000
; acceleration to travel
G1 X-11.805 Y-21.743
; decel to extrusion
M204 P1000 T1000
G1 X-11.793 Y-20.484
; end travel
M204 P1000 T1500
G1 Z37.8
G1 E1.000000 F2100
;WIDTH:0.414794
M106 S255
G1 F1800
G1 X-11.801 Y-20.403 E0.00252
M106 S255
;WIDTH:0.39171
M106 S255
G1 X-11.81 Y-20.322 E0.00237
M106 S255
;WIDTH:0.368625
M106 S255
G1 X-11.819 Y-20.24 E0.00221
M106 S255
;WIDTH:0.34554
M106 S255
G1 X-11.827 Y-20.159 E0.00206
G1 X-11.832 Y-19.955 E0.00514
M106 S255
;WIDTH:0.328048
M106 S255
G1 X-11.836 Y-19.751 E0.00484
G1 X-11.854 Y-19.493 E0.00612
M106 S255
;WIDTH:0.38292
M106 S255
G1 X-11.873 Y-19.236 E0.00731
M106 S255
G1 E-0.9 F2100
;WIPE_START
G1 F7200
G1 X-11.545 Y-19.336 E-0.095
;WIPE_END
G1 E-0.005 F2100
G1 Z38.000000 F9000
; acceleration to travel
G1 X8.361 Y-25.41
; decel to extrusion
M204 P1000 T1000
G1 X13.337 Y-26.928
; end travel
M204 P1000 T1500
G1 Z37.8
G1 E1.000000 F2100
M106 S255
G1 F1800
G1 X13.347 Y-26.929 E0.00028
M106 S255
M204 P1000 T1000
G1 X13.337 Y-26.928 F9000
M106 S255
G1 F1800
G1 X13.347 Y-26.929 E0.00029
M106 S255
G1 X13.337 Y-26.928 F9000
M106 S255
G1 F1800
G1 X12.646 Y-26.919 E0.01952
G1 X6.696 Y-26.919 E0.16823
M106 S255
G1 X5.868 Y-26.919 F9000
M106 S255
G1 F1800
G1 X2.694 Y-26.919 E0.08973
M106 S255
;LAYER_CHANGE
;Z:38.000000
;HEIGHT:0.200001
; BEFORE_LAYER_CHANGE
;38
G92 E0

G1 E-0.9 F2100
;WIPE_START
G1 F7200
G1 X3.037 Y-26.919 E-0.095
;WIPE_END
G1 E-0.005 F2100
G1 Z38.000000 F9000
; AFTER_LAYER_CHANGE
;38
G1 Z38.2
; acceleration to travel
M204 P1000 T1500
G1 X-7.433 Y-0.097
; decel to extrusion
M204 P1000 T1000
G1 X-10.165 Y6.9
; end travel
M204 P1000 T1500
G1 Z38.000000
G1 E1.000000 F2100
;TYPE:Internal perimeter
;WIDTH:0.299999
M106 S255
G1 F2546.4751
G1 X-10.007 Y7.154 E0.0064
G1 X-9.707 Y7.557 E0.01073
G1 X-9.362 Y7.98 E0.01168
G1 X-8.982 Y8.407 E0.01223
G1 X-8.388 Y8.996 E0.01787
G1 X-7.92 Y9.41 E0.01334
G1 X-7.407 Y9.82 E0.01405
G1 X-7.4 Y9.25 E0.01218
G1 X-7.322 Y9.106 E0.00351
M106 S255
M106 S255
G1 X-7.983 Y8.544 E0.01854
G1 X-8.541 Y7.981 E0.01694
G1 X-8.892 Y7.582 E0.01136
G1 X-9.253 Y7.151 E0.01203
G1 X-9.64 Y6.607 E0.01428
G1 X-9.922 Y6.164 E0.01122
G1 X-9.994 Y6.075 E0.00245
G1 X-10.201 Y5.918 E0.00554
G1 X-10.262 Y5.675 E0.00537
G1 X-10.242 Y5.612 E0.00142
G1 X-10.605 Y4.909 E0.01691
G1 X-10.749 Y4.725 E0.00498
G1 X-10.797 Y4.478 E0.00538
G1 X-11.06 Y3.782 E0.01592
G1 X-11.236 Y3.214 E0.0127
G1 X-11.377 Y2.685 E0.01172
G1 X-11.422 Y2.509 E0.00387
M106 S255
;WIDTH:0.321315
M106 S255
G1 X-11.468 Y2.334 E0.00419
M106 S255
;WIDTH:0.342631
M106 S255
G1 X-11.513 Y2.159 E0.00451
M106 S255
;WIDTH:0.363946
M106 S255
G1 X-11.559 Y1.984 E0.00483
G1 X-11.567 Y2.159 E0.00469
M106 S255
;WIDTH:0.342631
M106 S255
G1 X-11.576 Y2.335 E0.00438
M106 S255
;WIDTH:0.321315
M106 S255
G1 X-11.584 Y2.51 E0.00407
M106 S255
;WIDTH:0.299999
M106 S255
G1 X-11.593 Y2.686 E0.00375
G1 X-11.593 Y4.116 E0.03057
G1 X-11.189 Y5.106 E0.02286
G1 X-10.973 Y5.557 E0.0107
G1 X-10.669 Y6.119 E0.01365
G1 X-10.328 Y6.638 E0.01329
G1 X-10.197 Y6.849 E0.0053
M106 S255
M204 P1000 T1000
G1 X-10.774 Y6.427 F9000
;TYPE:External perimeter
M106 S255
G1 F1800
G1 X-10.377 Y7.046 E0.01572
G1 X-9.969 Y7.637 E0.01535
G1 X-9.565 Y8.137 E0.01375
G1 X-9.18 Y8.571 E0.0124
G1 X-8.62 Y9.128 E0.01688
G1 X-8.096 Y9.597 E0.01503
G1 X-7.536 Y10.046 E0.01535
G1 X-7.15 Y10.32 E0.01012
G1 X-7.15 Y9.325 E0.02128
G1 X-7.131 Y9.258 E0.00148
G1 X-7.035 Y9.197 E0.00245
M106 S255
M106 S255
G1 X-6.807 Y9.173 E0.0049
G1 X-7.211 Y8.867 E0.01084
G1 X-7.82 Y8.345 E0.01714
G1 X-8.358 Y7.801 E0.01636
G1 X-8.695 Y7.417 E0.01091
G1 X-9.056 Y6.986 E0.01203
G1 X-9.431 Y6.458 E0.01383
G1 X-9.808 Y5.864 E0.01506
G1 X-9.986 Y5.777 E0.00421
G1 X-9.988 Y5.64 E0.00295
G1 X-9.961 Y5.596 E0.0011
G1 X-10.397 Y4.752 E0.0203
G1 X-10.511 Y4.628 E0.0036
G1 X-10.556 Y4.387 E0.00524
G1 X-10.82 Y3.691 E0.01592
G1 X-10.99 Y3.139 E0.01235
G1 X-11.129 Y2.618 E0.01151
G1 X-11.273 Y1.924 E0.01516
G1 X-11.295 Y1.838 E0.00189
M106 S255
;WIDTH:0.325398
M106 S255
G1 X-11.317 Y1.752 E0.00208
M106 S255
;WIDTH:0.350798
M106 S255
G1 X-11.339 Y1.667 E0.00227
M106 S255
;WIDTH:0.376198
M106 S255
G1 X-11.36 Y1.581 E0.00246
M106 S255
;WIDTH:0.401598
M106 S255
G1 X-11.382 Y1.495 E0.00264
M106 S255
;WIDTH:0.426998
M106 S255
G1 X-11.404 Y1.409 E0.00283
G1 X-11.421 Y1.227 E0.00584
M106 S255
;WIDTH:0.403237
M106 S255
G1 X-11.438 Y1.045 E0.00548
G1 X-11.457 Y0.534 E0.01531
M106 S255
;WIDTH:0.378529
M106 S255
G1 X-11.475 Y0.015 E0.01449
G1 X-11.477 Y-14.734 E0.41158
G1 X-11.811 Y-14.838 E0.00978
G1 X-11.811 Y0.015 E0.41449
G1 X-11.805 Y0.542 E0.01471
M106 S255
;WIDTH:0.403237
M106 S255
G1 X-11.798 Y1.053 E0.01532
G1 X-11.792 Y1.243 E0.00569
M106 S255
;WIDTH:0.426998
M106 S255
G1 X-11.787 Y1.433 E0.00607
G1 X-11.797 Y1.52 E0.00278
M106 S255
;WIDTH:0.401599
M106 S255
G1 X-11.808 Y1.606 E0.00259
M106 S255
;WIDTH:0.376199
M106 S255
G1 X-11.818 Y1.692 E0.00241
M106 S255
;WIDTH:0.350799
M106 S255
G1 X-11.829 Y1.779 E0.00223
M106 S255
;WIDTH:0.325399
M106 S255
G1 X-11.839 Y1.865 E0.00204
M106 S255
;WIDTH:0.299999
M106 S255
G1 X-11.85 Y1.951 E0.00186
G1 X-11.85 Y4.159 E0.04719
G1 X-11.593 Y4.795 E0.01466
G1 X-11.371 Y5.321 E0.01221
G1 X-11.069 Y5.919 E0.01432
G1 X-10.804 Y6.375 E0.01127
M106 S255
;WIPE_START
G1 X-10.878 Y6.635 F9000
;WIPE_END
G1 E-0.9 F2100
;WIPE_START
G1 F7200
G1 X-10.693 Y6.924 E-0.095
;WIPE_END
G1 E-0.005 F2100
G1 Z38.2 F9000
; acceleration to travel
M204 P1000 T1500
G1 X-11.162 Y4.654
; decel to extrusion
M204 P1000 T1000
G1 X-11.285 Y4.055
; end travel
M204 P1000 T1500
G1 Z38.000000
G1 E1.000000 F2100
;TYPE:Internal perimeter
;WIDTH:0.400952
M106 S255
G1 F2700
G1 X-11.077 Y4.584 E0.01693
G1 X-11.002 Y4.787 E0.00644
M106 S255
;WIDTH:0.36107
M106 S255
G1 X-10.926 Y4.99 E0.00572
G1 X-10.748 Y5.319 E0.00991
M106 S255
;WIDTH:0.40529
M106 S255
G1 X-10.571 Y5.649 E0.01128
G1 X-10.539 Y5.73 E0.00263
M106 S255
;WIDTH:0.375739
M106 S255
G1 X-10.507 Y5.812 E0.00242
M106 S255
;WIDTH:0.346188
M106 S255
G1 X-10.475 Y5.893 E0.00221
M106 S255
;WIDTH:0.316637
M106 S255
G1 X-10.442 Y5.974 E0.00199
M106 S255
;WIDTH:0.287086
M106 S255
G1 X-10.41 Y6.056 E0.00178
G1 X-10.344 Y6.14 E0.00217
M106 S255
;WIDTH:0.310986
M106 S255
G1 X-10.277 Y6.223 E0.00238
M106 S255
;WIDTH:0.334886
M106 S255
G1 X-10.211 Y6.307 E0.00259
M106 S255
;WIDTH:0.358786
M106 S255
G1 X-10.145 Y6.391 E0.00281
M106 S255
;WIDTH:0.382686
M106 S255
G1 X-10.078 Y6.475 E0.00302
G1 X-9.912 Y6.733 E0.00868
M106 S255
;WIDTH:0.401536
M106 S255
G1 X-9.746 Y6.991 E0.00916
G1 X-9.127 Y7.78 E0.02989
G1 X-8.759 Y8.197 E0.01658
G1 X-8.226 Y8.731 E0.0225
G1 X-7.722 Y9.173 E0.02
G1 X-7.702 Y9.19 E0.00078
M106 S255
G1 E-0.9 F2100
;WIPE_START
G1 F7200
G1 X-7.722 Y9.173 E-0.00726
G1 X-7.96 Y8.965 E-0.08774
;WIPE_END
G1 E-0.005 F2100
G1 Z38.2 F9000
; acceleration to travel
G1 X-10.809 Y3.43
; decel to extrusion
M204 P1000 T1000
G1 X-11.56 Y1.97
; end travel
M204 P1000 T1500
G1 Z38.000000
G1 E1.000000 F2100
;WIDTH:0.366142
M106 S255
G1 F2700
G1 X-11.564 Y1.902 E0.00186
